mostgood1/WNBA-Betting/data/processed/games_predictions_npu_2025-12-31.csv
date,game_id,home_ot1,home_ot10,home_ot2,home_ot3,home_ot4,home_ot5,home_ot6,home_ot7,home_ot8,home_ot9,home_pts,home_q1,home_q2,home_q3,home_q4,home_team,home_win,margin,season,total_points,visitor_ot1,visitor_ot10,visitor_ot2,visitor_ot3,visitor_ot4,visitor_ot5,visitor_ot6,visitor_ot7,visitor_ot8,visitor_ot9,visitor_pts,visitor_q1,visitor_q2,visitor_q3,visitor_q4,visitor_team,home_h1,home_h2,visitor_h1,visitor_h2,home_elo,visitor_elo,is_home,target_home_win,target_margin,target_total,target_h1_margin,target_h1_total,target_h1_home_win,target_h2_margin,target_h2_total,target_h2_home_win,target_q1_margin,target_q1_total,target_q1_home_win,target_q2_margin,target_q2_total,target_q2_home_win,target_q3_margin,target_q3_total,target_q3_home_win,target_q4_margin,target_q4_total,target_q4_home_win,win_prob,spread_margin,totals,halves_h1_win,halves_h1_margin,halves_h1_total,halves_h2_win,halves_h2_margin,halves_h2_total,quarters_q1_win,quarters_q1_margin,quarters_q1_total,quarters_q2_win,quarters_q2_margin,quarters_q2_total,quarters_q3_win,quarters_q3_margin,quarters_q3_total,quarters_q4_win,quarters_q4_margin,quarters_q4_total
2025-12-31,,,,,,,,,,,,,,,,,Cleveland Cavaliers,,,,,,,,,,,,,,,,,,,,Phoenix Suns,,,,,1693.6615563736723,1407.9217763424385,1,0,,,,,0,,,0,,,0,,,0,,,0,,,0,0.7379072508004347,8.627852439880371,225.27154541015625,1.0,5.561742402600826,113.42469413416794,1.0,3.0661100372795445,111.84685127598834,1.0,2.650284955262402,56.764190928393596,1.0,2.9114574473384245,56.66050320577433,1.0,1.8446686935783012,56.665170769861376,1.0,1.2214413437012432,55.18168050612697
2025-12-31,,,,,,,,,,,,,,,,,Chicago Bulls,,,,,,,,,,,,,,,,,,,,New Orleans Pelicans,,,,,1633.1478293875864,1225.8323959161714,1,0,,,,,0,,,0,,,0,,,0,,,0,,,0,0.7812933121877912,11.730287551879883,229.07020568847656,1.0,7.163412297183062,115.26563103412393,1.0,4.566875254696821,113.80457465435262,1.0,3.7505554986876577,57.43686330878279,1.0,3.4128567984954046,57.82876772534114,1.0,2.7974231245443053,57.25698497587212,1.0,1.7694521301525163,56.54758967848049
2025-12-31,,,,,,,,,,,,,,,,,Atlanta Hawks,,,,,,,,,,,,,,,,,,,,Minnesota Timberwolves,,,,,1522.3022112738163,1706.5427395475638,1,0,,,,,0,,,0,,,0,,,0,,,0,,,0,0.36775586576440583,-1.9388549327850342,230.684814453125,1.0,-0.7057337242554059,116.38693842083472,0.0,-1.2331212085296284,114.29787603229028,0.0,-0.9208027671739709,58.051656594803845,0.0,0.215069042918565,58.33528182603088,0.0,-1.0107171816004503,57.885660833177845,0.0,-0.22240402692917796,56.41221519911244
2025-12-31,,,,,,,,,,,,,,,,,Charlotte Hornets,,,,,,,,,,,,,,,,,,,,Golden State Warriors,,,,,1127.6843862010323,1640.370824901381,1,0,,,,,0,,,0,,,0,,,0,,,0,,,0,0.22419514928666862,-11.319023132324219,220.79782104492188,0.0,-5.549567089954,110.9595505774416,0.0,-5.769456042370218,109.83827046748024,0.0,-3.7166611727732923,55.26845932104902,0.0,-1.8329059171807078,55.69109125639258,0.0,-3.94355072172995,55.977093681398586,0.0,-1.8259053206402684,53.861176786081664
2025-12-31,,,,,,,,,,,,,,,,,Milwaukee Bucks,,,,,,,,,,,,,,,,,,,,Washington Wizards,,,,,1704.6191810793111,1151.8858787418574,1,0,,,,,0,,,0,,,0,,,0,,,0,,,0,0.8255024069616512,15.319730758666992,226.6259002685547,1.0,9.24521658311056,114.82568715315423,1.0,6.0745141755564305,111.80021311540042,1.0,4.755677646444475,57.50654211950659,1.0,4.489538936666085,57.31914503364765,1.0,3.8447132771191597,56.53487418886572,1.0,2.229800898437271,55.265338926534696
2025-12-31,,,,,,,,,,,,,,,,,Indiana Pacers,,,,,,,,,,,,,,,,,,,,Orlando Magic,,,,,1677.5706123838518,1613.2989140138604,1,0,,,,,0,,,0,,,0,,,0,,,0,,,0,0.6557748499644644,3.368435859680176,224.77923583984375,1.0,2.9278264510761156,113.18205885416401,1.0,0.44060940860406067,111.59717698567975,1.0,0.8345513804118898,56.24948184154713,1.0,2.093275070664226,56.93257701261689,0.0,0.0306903125032747,56.3411188641817,0.0,0.409919096100786,55.25605812149805
2025-12-31,,,,,,,,,,,,,,,,,Oklahoma City Thunder,,,,,,,,,,,,,,,,,,,,Portland Trail Blazers,,,,,1831.1771861350628,1538.5027821186084,1,0,,,,,0,,,0,,,0,,,0,,,0,,,0,0.7455008014492714,9.148879051208496,227.69638061523438,1.0,6.037838262852274,115.20752254837919,1.0,3.111040788356222,112.48885806685524,1.0,2.7042018775028174,57.60202626542207,1.0,3.333636385349457,57.60549628295711,1.0,1.7985118548104642,57.37540344427101,1.0,1.312528933545758,55.113454622584236
2025-12-31,,,,,,,,,,,,,,,,,Toronto Raptors,,,,,,,,,,,,,,,,,,,,Denver Nuggets,,,,,1296.4917174840082,1610.9867508691182,1,0,,,,,0,,,0,,,0,,,0,,,0,,,0,0.3067166784533546,-5.701910972595215,228.27439880371094,0.0,-2.747114507335221,116.17832606558335,0.0,-2.954796465259994,112.0960727381276,0.0,-1.9430928982154159,58.016242288991236,0.0,-0.8040216091198051,58.16208377659211,0.0,-2.1472294062421486,56.87763070439701,0.0,-0.8075670590178452,55.21844203373059
2025-12-31,,,,,,,,,,,,,,,,,San Antonio Spurs,,,,,,,,,,,,,,,,,,,,New York Knicks,,,,,1372.426501371599,1527.0879410236441,1,0,,,,,0,,,0,,,0,,,0,,,0,,,0,0.36612942725546915,-2.0371124744415283,224.63478088378906,0.0,-0.5767333068270412,113.12181230275252,0.0,-1.4603791676144873,111.51296858103653,0.0,-0.8091093341988319,56.10846367858642,0.0,0.23237602737179075,57.01334862416609,0.0,-1.1084037882048432,56.50605766196008,0.0,-0.35197537940964396,55.006910919076454
