mostgood1/WNBA-Betting/data/processed/games_predictions_npu_2026-01-17.csv
date,game_id,home_ot1,home_ot10,home_ot2,home_ot3,home_ot4,home_ot5,home_ot6,home_ot7,home_ot8,home_ot9,home_pts,home_q1,home_q2,home_q3,home_q4,home_team,home_win,margin,season,total_points,visitor_ot1,visitor_ot10,visitor_ot2,visitor_ot3,visitor_ot4,visitor_ot5,visitor_ot6,visitor_ot7,visitor_ot8,visitor_ot9,visitor_pts,visitor_q1,visitor_q2,visitor_q3,visitor_q4,visitor_team,home_h1,home_h2,visitor_h1,visitor_h2,home_elo,visitor_elo,is_home,target_home_win,target_margin,target_total,target_h1_margin,target_h1_total,target_h1_home_win,target_h2_margin,target_h2_total,target_h2_home_win,target_q1_margin,target_q1_total,target_q1_home_win,target_q2_margin,target_q2_total,target_q2_home_win,target_q3_margin,target_q3_total,target_q3_home_win,target_q4_margin,target_q4_total,target_q4_home_win,win_prob,spread_margin,totals,halves_h1_win,halves_h1_margin,halves_h1_total,halves_h2_win,halves_h2_margin,halves_h2_total,quarters_q1_win,quarters_q1_margin,quarters_q1_total,quarters_q2_win,quarters_q2_margin,quarters_q2_total,quarters_q3_win,quarters_q3_margin,quarters_q3_total,quarters_q4_win,quarters_q4_margin,quarters_q4_total
2026-01-17,,,,,,,,,,,,,,,,,Portland Trail Blazers,,,,,,,,,,,,,,,,,,,,Los Angeles Lakers,,,,,1538.5027821186084,1581.6307699022973,1,0,,,,,0,,,0,,,0,,,0,,,0,,,0,0.5205183567013612,0.6547054052352905,223.61666870117188,0.570339560508728,2.3044750167635053,113.4614160402157,0.4634851813316345,-1.6497696115282146,110.15525266095614,0.48693618178367615,0.07912858390730307,56.37047559037975,0.5273929238319397,2.225346432856202,57.09094044983595,0.4345974624156952,-1.5953502634752128,55.74952372727335,0.44430455565452576,-0.054419348053001755,54.40572893368279
2026-01-17,,,,,,,,,,,,,,,,,Denver Nuggets,,,,,,,,,,,,,,,,,,,,Washington Wizards,,,,,1610.9867508691182,1151.8858787418574,1,0,,,,,0,,,0,,,0,,,0,,,0,,,0,0.7648097185565325,12.715707778930664,224.6710968017578,0.783543050289154,7.970779169107637,114.62112242687823,0.6532512307167053,4.744928609823027,110.0499743748796,0.6711544990539551,3.9951973594654424,57.22531815238943,0.6836098432540894,3.9755818096421938,57.395804274488796,0.6215668320655823,3.0051439552012926,55.605235384740524,0.5313176512718201,1.7397846546217353,54.44473899013907
2026-01-17,,,,,,,,,,,,,,,,,Miami Heat,,,,,,,,,,,,,,,,,,,,Oklahoma City Thunder,,,,,1526.1290915477284,1831.1771861350628,1,0,,,,,0,,,0,,,0,,,0,,,0,,,0,0.38867060684463395,-5.0316667556762695,231.9846954345703,0.4420533776283264,-2.3379479075041516,118.16207942668748,0.3995654582977295,-2.693718848172118,113.8226160078828,0.38494622707366943,-1.8115659312663164,59.10535530095598,0.43765267729759216,-0.526381976237835,59.05672412573151,0.3792031407356262,-1.9994620858655294,57.7952114519974,0.3979838788509369,-0.6942567623065886,56.0274045558854
2026-01-17,,,,,,,,,,,,,,,,,San Antonio Spurs,,,,,,,,,,,,,,,,,,,,Minnesota Timberwolves,,,,,1372.426501371599,1706.5427395475638,1,0,,,,,0,,,0,,,0,,,0,,,0,,,0,0.36187414447930116,-6.320951461791992,226.76840209960938,0.416279673576355,-2.806556277524249,113.94176148739623,0.36610737442970276,-3.5143951842677437,112.82664061221314,0.3774336576461792,-2.1849334177127,56.747662916713985,0.4310271441936493,-0.6216228598115491,57.19409857068226,0.3477358818054199,-2.4988722432350308,57.0544091673506,0.3827916383743286,-1.0155229410327127,55.77223144486254
2026-01-17,,,,,,,,,,,,,,,,,New York Knicks,,,,,,,,,,,,,,,,,,,,Phoenix Suns,,,,,1527.0879410236441,1407.9217763424385,1,0,,,,,0,,,0,,,0,,,0,,,0,,,0,0.605869773050018,4.496728420257568,220.6126251220703,0.6390840411186218,3.2992271043346566,111.08831663133844,0.524120569229126,1.1975013159229124,109.52430849073187,0.5410488247871399,1.411044216868866,55.232250998537765,0.5718435049057007,1.8881828874657907,55.85606563280068,0.5079559683799744,0.6378558713347292,55.56744173495988,0.4669739603996277,0.5596454445881832,53.95686675577198
2026-01-17,,,,,,,,,,,,,,,,,Detroit Pistons,,,,,,,,,,,,,,,,,,,,Indiana Pacers,,,,,1548.5405304583608,1677.5706123838518,1,0,,,,,0,,,0,,,0,,,0,,,0,,,0,0.4710057434603506,-1.4162838459014893,230.91445922851562,0.5193634033203125,-0.16847122387505098,116.68881921232474,0.44019317626953125,-1.2478126220264383,114.22564001619087,0.45404869318008423,-0.5672214554086971,57.9974804938908,0.4960971176624298,0.3987502315336461,58.69133871843394,0.41693413257598877,-0.9718878421369018,57.537630430398,0.4196442663669586,-0.2759247798895365,56.68800958579286
2026-01-17,,,,,,,,,,,,,,,,,Golden State Warriors,,,,,,,,,,,,,,,,,,,,Charlotte Hornets,,,,,1640.370824901381,1127.6843862010323,1,0,,,,,0,,,0,,,0,,,0,,,0,,,0,0.7840998391771764,13.994295120239258,220.1234130859375,0.8009285926818848,8.699217365072348,110.6124368891061,0.6636926531791687,5.2950777551669095,109.51097619683142,0.6843053102493286,4.532845512992028,55.07719323140412,0.6897445321083069,4.16637185208032,55.53524365770199,0.6389712691307068,3.3213782165379064,55.889591428717246,0.5476765036582947,1.9736995386290033,53.621384768114176
2026-01-17,,,,,,,,,,,,,,,,,Dallas Mavericks,,,,,,,,,,,,,,,,,,,,Utah Jazz,,,,,1345.1752215638398,1223.8102860635088,1,0,,,,,0,,,0,,,0,,,0,,,0,,,0,0.582586078303821,3.568173885345459,231.8756103515625,0.6253297328948975,3.296516703857442,116.45177114782248,0.475460410118103,0.27165718148801676,115.42383920374006,0.5495761036872864,1.467464597754037,57.92004021727525,0.5510186553001404,1.8290521061034053,58.53173093054723,0.4580041170120239,-0.12190623589500775,57.93544689375633,0.4669435918331146,0.3935634173830245,57.48839230998373
2026-01-17,,,,,,,,,,,,,,,,,Atlanta Hawks,,,,,,,,,,,,,,,,,,,,Boston Celtics,,,,,1522.3022112738163,1729.0894090837962,1,0,,,,,0,,,0,,,0,,,0,,,0,,,0,0.4531585911425838,-2.328422784805298,223.94308471679688,0.49779945611953735,-0.9450477824182908,112.29697786244745,0.4599353075027466,-1.3833750023870068,111.64610685434945,0.4224436283111572,-1.1770981084947665,56.189644813882275,0.4918234944343567,0.23205032607647563,56.10733304856518,0.43137913942337036,-0.9948055296863496,56.738322040215344,0.40799084305763245,-0.3885694727006572,54.90778481413411
