mostgood1/WNBA-Betting/data/processed/games_predictions_npu_2025-11-03.csv
date,game_id,home_ot1,home_ot10,home_ot2,home_ot3,home_ot4,home_ot5,home_ot6,home_ot7,home_ot8,home_ot9,home_pts,home_q1,home_q2,home_q3,home_q4,home_team,home_win,margin,season,total_points,visitor_ot1,visitor_ot10,visitor_ot2,visitor_ot3,visitor_ot4,visitor_ot5,visitor_ot6,visitor_ot7,visitor_ot8,visitor_ot9,visitor_pts,visitor_q1,visitor_q2,visitor_q3,visitor_q4,visitor_team,home_h1,home_h2,visitor_h1,visitor_h2,home_elo,visitor_elo,is_home,target_home_win,target_margin,target_total,target_h1_margin,target_h1_total,target_h1_home_win,target_h2_margin,target_h2_total,target_h2_home_win,target_q1_margin,target_q1_total,target_q1_home_win,target_q2_margin,target_q2_total,target_q2_home_win,target_q3_margin,target_q3_total,target_q3_home_win,target_q4_margin,target_q4_total,target_q4_home_win,win_prob,spread_margin,totals,halves_h1_win,halves_h1_margin,halves_h1_total,halves_h2_win,halves_h2_margin,halves_h2_total,quarters_q1_win,quarters_q1_margin,quarters_q1_total,quarters_q2_win,quarters_q2_margin,quarters_q2_total,quarters_q3_win,quarters_q3_margin,quarters_q3_total,quarters_q4_win,quarters_q4_margin,quarters_q4_total
2025-11-03,,,,,,,,,,,,,,,,,Portland Trail Blazers,,,,,,,,,,,,,,,,,,,,Los Angeles Lakers,,,,,1538.5027821186084,1581.6307699022973,1,0,,,,,0,,,0,,,0,,,0,,,0,,,0,0.612277671196374,0.7368917465209961,225.1232452392578,1.0,1.283009199147555,114.23539042044865,0.0,-0.5461174526265589,110.88785481880912,0.0,0.058703118866760835,56.799870604817514,1.0,1.2243060802807941,57.435519815631146,0.0,-0.9027136796857276,56.1857090736667,0.0,0.35659622705916877,54.70214574514242
2025-11-03,,,,,,,,,,,,,,,,,Los Angeles Clippers,,,,,,,,,,,,,,,,,,,,Miami Heat,,,,,1809.8047447381302,1526.1290915477284,1,0,,,,,0,,,0,,,0,,,0,,,0,,,0,0.741543449890707,8.876348495483398,233.48423767089844,1.0,5.878722675809103,118.57141142966984,1.0,2.9976258196742958,114.91282624122863,1.0,2.6796523806199772,59.171347185312875,1.0,3.199070295189126,59.400064244356955,1.0,1.4735963477483318,58.124414490402444,1.0,1.5240294719259637,56.78841175082619
2025-11-03,,,,,,,,,,,,,,,,,Brooklyn Nets,,,,,,,,,,,,,,,,,,,,Minnesota Timberwolves,,,,,1232.3041632733696,1706.5427395475638,1,0,,,,,0,,,0,,,0,,,0,,,0,,,0,0.24367492404046073,-9.90621280670166,226.86468505859375,0.0,-5.140894383408722,114.73818837374944,0.0,-4.765318423292938,112.12649668484431,0.0,-3.351141698655906,57.18026135076819,0.0,-1.7897526847528158,57.55792702298125,0.0,-3.435525614648337,56.68996917495663,0.0,-1.3297928086446016,55.436527509887675
2025-11-03,,,,,,,,,,,,,,,,,Memphis Grizzlies,,,,,,,,,,,,,,,,,,,,Detroit Pistons,,,,,1489.9859410623828,1548.5405304583608,1,0,,,,,0,,,0,,,0,,,0,,,0,,,0,0.6123966142436921,0.7440351247787476,231.83993530273438,1.0,0.5902873356863604,117.12045415231745,1.0,0.15374778909238707,114.71948115041695,0.0,0.0791039699442118,58.576487268877464,0.0,0.5111833657421486,58.54396688343999,0.0,-0.28657793526589775,58.169318706001604,0.0,0.4403257243582848,56.55016244441534
2025-11-03,,,,,,,,,,,,,,,,,Denver Nuggets,,,,,,,,,,,,,,,,,,,,Sacramento Kings,,,,,1610.9867508691182,1497.9102461251282,1,0,,,,,0,,,0,,,0,,,0,,,0,,,0,0.6758151632854097,4.604587554931641,229.3418731689453,1.0,3.239973407708316,117.17701255546913,1.0,1.364614147223325,112.16486061347618,1.0,1.267099135290436,58.40431304030978,1.0,1.9728742724178798,58.77269951515935,1.0,0.5275300215116052,56.935723181641194,1.0,0.8370841257117198,55.229137431834985
2025-11-03,,,,,,,,,,,,,,,,,Boston Celtics,,,,,,,,,,,,,,,,,,,,Utah Jazz,,,,,1729.0894090837962,1223.8102860635088,1,0,,,,,0,,,0,,,0,,,0,,,0,,,0,0.8059356252843759,13.663005828857422,228.74905395507812,1.0,8.549813071353636,114.06270700084497,1.0,5.113192757503786,114.68634695423316,1.0,4.649834339406143,57.22753934009278,1.0,3.899978731947492,56.83516766075218,1.0,2.8142096489989354,58.097596442563855,1.0,2.2989831085048507,56.588750511669296
2025-11-03,,,,,,,,,,,,,,,,,New York Knicks,,,,,,,,,,,,,,,,,,,,Washington Wizards,,,,,1527.0879410236441,1151.8858787418574,1,0,,,,,0,,,0,,,0,,,0,,,0,,,0,0.7659032312193961,10.592262268066406,221.5337677001953,1.0,6.472958157328441,112.49180801388977,1.0,4.119304110737966,109.04195968630555,1.0,3.3541853193828763,55.89720449436768,1.0,3.118772837945565,56.59460351952208,1.0,2.4335736012169433,54.86602844750919,1.0,1.685730509521023,54.17593123879635
2025-11-03,,,,,,,,,,,,,,,,,Houston Rockets,,,,,,,,,,,,,,,,,,,,Dallas Mavericks,,,,,1582.2865289306442,1345.1752215638398,1,0,,,,,0,,,0,,,0,,,0,,,0,,,0,0.7157822348279077,7.151327133178711,227.6766815185547,1.0,4.432443450170642,115.38051139651041,1.0,2.7188836830080687,112.29617012204426,1.0,2.1845544856414145,57.61881990975602,1.0,2.2478889645292277,57.761691486754394,1.0,1.561947038257337,56.739351271332374,1.0,1.1569366447507314,55.55681885071189
2025-11-03,,,,,,,,,,,,,,,,,Indiana Pacers,,,,,,,,,,,,,,,,,,,,Milwaukee Bucks,,,,,1677.5706123838518,1704.6191810793111,1,0,,,,,0,,,0,,,0,,,0,,,0,,,0,0.6187361820084052,1.124994158744812,233.20208740234375,1.0,1.5375465898298402,117.99063035166364,0.0,-0.4125524310850281,115.21145705068008,0.0,0.19930288535703153,58.95007248381458,1.0,1.3382437044728086,59.04055786784906,0.0,-0.8220877012377261,58.6099064074076,0.0,0.409535270152698,56.601550643272475
