mostgood1/WNBA-Betting/data/processed/games_predictions_npu_2026-01-28.csv
date,game_id,home_ot1,home_ot10,home_ot2,home_ot3,home_ot4,home_ot5,home_ot6,home_ot7,home_ot8,home_ot9,home_pts,home_q1,home_q2,home_q3,home_q4,home_team,home_win,margin,season,total_points,visitor_ot1,visitor_ot10,visitor_ot2,visitor_ot3,visitor_ot4,visitor_ot5,visitor_ot6,visitor_ot7,visitor_ot8,visitor_ot9,visitor_pts,visitor_q1,visitor_q2,visitor_q3,visitor_q4,visitor_team,home_h1,home_h2,visitor_h1,visitor_h2,home_elo,visitor_elo,is_home,target_home_win,target_margin,target_total,target_h1_margin,target_h1_total,target_h1_home_win,target_h2_margin,target_h2_total,target_h2_home_win,target_q1_margin,target_q1_total,target_q1_home_win,target_q2_margin,target_q2_total,target_q2_home_win,target_q3_margin,target_q3_total,target_q3_home_win,target_q4_margin,target_q4_total,target_q4_home_win,win_prob,spread_margin,totals,halves_h1_win,halves_h1_margin,halves_h1_total,halves_h2_win,halves_h2_margin,halves_h2_total,quarters_q1_win,quarters_q1_margin,quarters_q1_total,quarters_q2_win,quarters_q2_margin,quarters_q2_total,quarters_q3_win,quarters_q3_margin,quarters_q3_total,quarters_q4_win,quarters_q4_margin,quarters_q4_total
2026-01-28,,,,,,,,,,,,,,,,,Cleveland Cavaliers,,,,,,,,,,,,,,,,,,,,Los Angeles Lakers,,,,,1693.6615563736723,1581.6307699022973,1,0,,,,,0,,,0,,,0,,,0,,,0,,,0,0.6073035611443182,4.426910400390625,227.47882080078125,0.6529878973960876,3.6993895265362724,115.91247350263995,0.5245964527130127,0.7275208738543523,111.5663472981413,0.5524483323097229,1.2894812995431224,57.59071433781136,0.5868573784828186,2.40990822699315,58.321759164828585,0.48369720578193665,0.22168792282387972,56.16333483263574,0.46938931941986084,0.5058329510304725,55.40301246550556
2026-01-28,,,,,,,,,,,,,,,,,Memphis Grizzlies,,,,,,,,,,,,,,,,,,,,Charlotte Hornets,,,,,1489.9859410623828,1127.6843862010323,1,0,,,,,0,,,0,,,0,,,0,,,0,,,0,0.7294977718682771,10.68479061126709,223.79527282714844,0.7487028241157532,6.525265269063915,112.63043671928948,0.6292839646339417,4.159525342203175,111.16483610785897,0.6300574541091919,3.3453460181037835,56.055698861278785,0.6475512981414795,3.1799192509601313,56.57473785801069,0.6117311716079712,2.6751034327899355,56.36755679851418,0.5103470087051392,1.484421909413239,54.797279309344795
2026-01-28,,,,,,,,,,,,,,,,,Toronto Raptors,,,,,,,,,,,,,,,,,,,,New York Knicks,,,,,1296.4917174840082,1527.0879410236441,1,0,,,,,0,,,0,,,0,,,0,,,0,,,0,0.41983699531811486,-3.6585795879364014,223.2064666748047,0.4701675474643707,-1.497301767678118,113.06740794882253,0.4082331657409668,-2.1612778202582836,110.13905872598215,0.4080428183078766,-1.3406482104518704,56.14601367061269,0.46604490280151367,-0.1566535572262475,56.921394278209846,0.3993986248970032,-1.5145379589866017,55.55661421488223,0.3942466676235199,-0.6467398612716819,54.582444511099915
2026-01-28,,,,,,,,,,,,,,,,,Dallas Mavericks,,,,,,,,,,,,,,,,,,,,Minnesota Timberwolves,,,,,1345.1752215638398,1706.5427395475638,1,0,,,,,0,,,0,,,0,,,0,,,0,,,0,0.335602192104024,-7.593152046203613,224.0487060546875,0.3966462314128876,-3.1775387781001614,113.61949219806496,0.326791375875473,-4.415613268103451,110.42921385662257,0.36964160203933716,-2.4680171988803763,56.50194658508662,0.4215436279773712,-0.7095215792197849,57.11754561297834,0.31320202350616455,-3.093095057357609,55.448449735905456,0.36860191822052,-1.3225182107458426,54.98076412071711
2026-01-28,,,,,,,,,,,,,,,,,Utah Jazz,,,,,,,,,,,,,,,,,,,,Golden State Warriors,,,,,1223.8102860635088,1640.370824901381,1,0,,,,,0,,,0,,,0,,,0,,,0,,,0,0.31977504749825547,-8.37987995147705,230.71658325195312,0.3700895309448242,-4.13319073550805,115.32720270475076,0.3460618257522583,-4.246689215969001,115.38938054720239,0.3499811887741089,-3.0107250248430812,57.72851146112499,0.4143943786621094,-1.1224657106649691,57.59869124362578,0.3320430517196655,-2.8101959685585185,58.76525553045108,0.34906673431396484,-1.4364932474104823,56.624125016751314
2026-01-28,,,,,,,,,,,,,,,,,Houston Rockets,,,,,,,,,,,,,,,,,,,,San Antonio Spurs,,,,,1582.2865289306442,1372.426501371599,1,0,,,,,0,,,0,,,0,,,0,,,0,,,0,0.6465688247468123,6.318073272705078,229.29498291015625,0.6852964162826538,4.781204236577193,115.18489252976835,0.5423948168754578,1.5368690361278856,114.11009038038787,0.5895885229110718,2.014997753500813,57.54111894996672,0.6080033779144287,2.76620648307638,57.64377357980163,0.5060093998908997,0.8063255012545294,57.90974245632852,0.48058581352233887,0.7305435348733562,56.20034792405936
2026-01-28,,,,,,,,,,,,,,,,,Miami Heat,,,,,,,,,,,,,,,,,,,,Orlando Magic,,,,,1526.1290915477284,1613.2989140138604,1,0,,,,,0,,,0,,,0,,,0,,,0,,,0,0.5115347911261734,0.21542751789093018,225.10169982910156,0.5590398907661438,-6.514475620172728,114.03734321504986,0.48162686824798584,6.7299031380636585,111.06435661405169,0.4689754843711853,3.1300567334929355,57.09489563007855,0.5264456272125244,-9.644532353665664,56.94244758497131,0.4522581994533539,5.852962139818484,56.05884278219909,0.4293138384819031,0.8769409982451749,55.0055138318526
2026-01-28,,,,,,,,,,,,,,,,,Indiana Pacers,,,,,,,,,,,,,,,,,,,,Chicago Bulls,,,,,1677.5706123838518,1633.1478293875864,1,0,,,,,0,,,0,,,0,,,0,,,0,,,0,0.5698026467966812,2.7439427375793457,229.36326599121094,0.6226752400398254,2.9309411469299724,115.39966080142736,0.494826078414917,-0.18699840935062628,113.96360518978358,0.5282477140426636,0.7668764450652746,57.22273640634646,0.5653680562973022,2.1640647018646977,58.17692439508089,0.4529540538787842,-0.4434102235902669,57.3906910367985,0.4579204320907593,0.2564118142396406,56.572914152985085
2026-01-28,,,,,,,,,,,,,,,,,Boston Celtics,,,,,,,,,,,,,,,,,,,,Atlanta Hawks,,,,,1729.0894090837962,1522.3022112738163,1,0,,,,,0,,,0,,,0,,,0,,,0,,,0,0.653199008421578,6.590775489807129,224.66151428222656,0.7047300338745117,5.3881589916901955,112.74195541891672,0.5350712537765503,1.2026164981169336,111.91955886330985,0.5887819528579712,2.258855727516374,56.36908731359694,0.6069818735122681,3.129303264173822,56.372868105319775,0.48808446526527405,0.29299402927014984,56.8459745623441,0.5066518187522888,0.9096224688467838,55.073584300965756
