mostgood1/WNBA-Betting/data/processed/games_predictions_npu_2025-12-26.csv
date,game_id,home_ot1,home_ot10,home_ot2,home_ot3,home_ot4,home_ot5,home_ot6,home_ot7,home_ot8,home_ot9,home_pts,home_q1,home_q2,home_q3,home_q4,home_team,home_win,margin,season,total_points,visitor_ot1,visitor_ot10,visitor_ot2,visitor_ot3,visitor_ot4,visitor_ot5,visitor_ot6,visitor_ot7,visitor_ot8,visitor_ot9,visitor_pts,visitor_q1,visitor_q2,visitor_q3,visitor_q4,visitor_team,home_h1,home_h2,visitor_h1,visitor_h2,home_elo,visitor_elo,is_home,target_home_win,target_margin,target_total,target_h1_margin,target_h1_total,target_h1_home_win,target_h2_margin,target_h2_total,target_h2_home_win,target_q1_margin,target_q1_total,target_q1_home_win,target_q2_margin,target_q2_total,target_q2_home_win,target_q3_margin,target_q3_total,target_q3_home_win,target_q4_margin,target_q4_total,target_q4_home_win,win_prob,spread_margin,totals,halves_h1_win,halves_h1_margin,halves_h1_total,halves_h2_win,halves_h2_margin,halves_h2_total,quarters_q1_win,quarters_q1_margin,quarters_q1_total,quarters_q2_win,quarters_q2_margin,quarters_q2_total,quarters_q3_win,quarters_q3_margin,quarters_q3_total,quarters_q4_win,quarters_q4_margin,quarters_q4_total
2025-12-26,,,,,,,,,,,,,,,,,Indiana Pacers,,,,,,,,,,,,,,,,,,,,Boston Celtics,,,,,1677.5706123838518,1729.0894090837962,1,0,,,,,0,,,0,,,0,,,0,,,0,,,0,0.6124716534496241,0.7485418319702148,221.85926818847656,1.0,1.6583359655542358,111.5599049121235,0.0,-0.9097941335840208,110.29936327635306,0.0,-0.2552715872942617,55.672908341320074,1.0,1.9136075528484975,55.88699657080343,0.0,-0.8960656280613426,55.87051661950175,0.0,-0.013728505522678246,54.42884665685131
2025-12-26,,,,,,,,,,,,,,,,,Orlando Magic,,,,,,,,,,,,,,,,,,,,Charlotte Hornets,,,,,1613.2989140138604,1127.6843862010323,1,0,,,,,0,,,0,,,0,,,0,,,0,,,0,0.8023578854773974,13.372726440429688,219.68316650390625,1.0,8.22642395472876,110.22514811108326,1.0,5.146302485700928,109.45801839282295,1.0,4.324943417703593,54.79443981035545,1.0,3.9014805370251673,55.430708300727815,1.0,3.189093649758683,55.25249888622506,1.0,1.9572088359422448,54.20551950659789
2025-12-26,,,,,,,,,,,,,,,,,New Orleans Pelicans,,,,,,,,,,,,,,,,,,,,Phoenix Suns,,,,,1225.8323959161714,1407.9217763424385,1,0,,,,,0,,,0,,,0,,,0,,,0,,,0,0.346562684822364,-3.225519895553589,225.3434600830078,0.0,-1.3357122450076295,113.13444406838153,0.0,-1.8898076505459593,112.20901601462631,0.0,-1.1250427639378255,56.49064909988175,0.0,-0.2106694810698039,56.64379496849978,0.0,-1.3068892007335924,56.70352351040839,0.0,-0.582918449812367,55.50549250421792
2025-12-26,,,,,,,,,,,,,,,,,Atlanta Hawks,,,,,,,,,,,,,,,,,,,,Miami Heat,,,,,1522.3022112738163,1526.1290915477284,1,0,,,,,0,,,0,,,0,,,0,,,0,,,0,0.6365411921739121,2.198601245880127,234.18051147460938,1.0,1.974076315865804,118.789705626571,1.0,0.22452493001432328,115.39080584803838,1.0,0.4553991956187552,59.39431026029795,1.0,1.5186771202470486,59.39539536627306,0.0,-0.19599622627244573,58.44509776591004,0.0,0.420521156286769,56.94570808212834
2025-12-26,,,,,,,,,,,,,,,,,Chicago Bulls,,,,,,,,,,,,,,,,,,,,Philadelphia 76ers,,,,,1633.1478293875864,1151.8218820862296,1,0,,,,,0,,,0,,,0,,,0,,,0,,,0,0.8036032117422369,13.473360061645508,227.64674377441406,1.0,8.545726583733128,114.9761568356134,1.0,4.92763347791238,112.67058693880062,1.0,4.231047471188924,57.46104076635073,1.0,4.314679112544204,57.51511606926267,1.0,2.9514205671849933,56.794083541824506,1.0,1.9762129107273871,55.876503396976126
2025-12-26,,,,,,,,,,,,,,,,,Washington Wizards,,,,,,,,,,,,,,,,,,,,Toronto Raptors,,,,,1151.8858787418574,1296.4917174840082,1,0,,,,,0,,,0,,,0,,,0,,,0,,,0,0.3567422939945323,-2.605652093887329,223.7611541748047,0.0,-0.5117179048290457,113.1948742332805,0.0,-2.0939341890582837,110.56627994152419,0.0,-0.7859482692453874,56.33229580631103,0.0,0.2742303644163418,56.86257842696948,0.0,-1.601586231103782,55.348680002918336,0.0,-0.4923479579545016,55.21759993860586
2025-12-26,,,,,,,,,,,,,,,,,Utah Jazz,,,,,,,,,,,,,,,,,,,,Detroit Pistons,,,,,1223.8102860635088,1548.5405304583608,1,0,,,,,0,,,0,,,0,,,0,,,0,,,0,0.29701006566464483,-6.321649551391602,237.31285095214844,0.0,-3.2023115312378057,118.90583349756872,0.0,-3.119338020153796,118.40701745457966,0.0,-2.1945604708962865,59.43956077441538,0.0,-1.0077510603415194,59.466272723153345,0.0,-2.165331046619042,59.53957852781081,0.0,-0.9540069735347538,58.86743892676884
2025-12-26,,,,,,,,,,,,,,,,,Memphis Grizzlies,,,,,,,,,,,,,,,,,,,,Milwaukee Bucks,,,,,1489.9859410623828,1704.6191810793111,1,0,,,,,0,,,0,,,0,,,0,,,0,,,0,0.3501756555763582,-3.0050671100616455,231.46688842773438,0.0,-1.136657157291874,117.04662163911108,0.0,-1.8684099527697715,114.4202667886233,0.0,-1.108915123316252,58.77450866759574,0.0,-0.027742033975622082,58.27211297151534,0.0,-1.5213531081710643,58.466855518924845,0.0,-0.3470568445987072,55.95341126969845
2025-12-26,,,,,,,,,,,,,,,,,Portland Trail Blazers,,,,,,,,,,,,,,,,,,,,Los Angeles Clippers,,,,,1538.5027821186084,1809.8047447381302,1,0,,,,,0,,,0,,,0,,,0,,,0,,,0,0.3221239497445035,-4.732979774475098,226.69883728027344,0.0,-1.9020508216860872,114.22326700704181,0.0,-2.8309289527890105,112.47557027323164,0.0,-1.5955514293608566,56.93676456715962,0.0,-0.30649939232523066,57.2865024398822,0.0,-2.1779148501743406,57.125444316540914,0.0,-0.6530141026146697,55.350125956690725
