mostgood1/WNBA-Betting/data/processed/games_predictions_npu_2026-03-08.csv
date,game_id,home_ot1,home_ot10,home_ot2,home_ot3,home_ot4,home_ot5,home_ot6,home_ot7,home_ot8,home_ot9,home_pts,home_q1,home_q2,home_q3,home_q4,home_team,home_win,margin,season,total_points,visitor_ot1,visitor_ot10,visitor_ot2,visitor_ot3,visitor_ot4,visitor_ot5,visitor_ot6,visitor_ot7,visitor_ot8,visitor_ot9,visitor_pts,visitor_q1,visitor_q2,visitor_q3,visitor_q4,visitor_team,home_h1,home_h2,visitor_h1,visitor_h2,home_elo,visitor_elo,is_home,target_home_win,target_margin,target_total,target_h1_margin,target_h1_total,target_h1_home_win,target_h2_margin,target_h2_total,target_h2_home_win,target_q1_margin,target_q1_total,target_q1_home_win,target_q2_margin,target_q2_total,target_q2_home_win,target_q3_margin,target_q3_total,target_q3_home_win,target_q4_margin,target_q4_total,target_q4_home_win,win_prob,spread_margin,totals,halves_h1_win,halves_h1_margin,halves_h1_total,halves_h2_win,halves_h2_margin,halves_h2_total,quarters_q1_win,quarters_q1_margin,quarters_q1_total,quarters_q2_win,quarters_q2_margin,quarters_q2_total,quarters_q3_win,quarters_q3_margin,quarters_q3_total,quarters_q4_win,quarters_q4_margin,quarters_q4_total
2026-03-08,,,,,,,,,,,,,,,,,Milwaukee Bucks,,,,,,,,,,,,,,,,,,,,Orlando Magic,,,,,1704.6191810793111,1613.2989140138604,1,0,,,,,0,,,0,,,0,,,0,,,0,,,0,0.5956429569466223,4.394471168518066,225.43983459472656,0.6287921071052551,3.606928028847716,113.65295918582805,0.5155454277992249,0.7875431396703501,111.78687540889852,0.5297571420669556,1.1255530665717313,56.965841793666264,0.5904293656349182,2.481374962275985,56.68711739216178,0.4953990876674652,0.4014670679442037,56.77030288910732,0.45618557929992676,0.3860760717261464,55.016572519791204
2026-03-08,,,,,,,,,,,,,,,,,Phoenix Suns,,,,,,,,,,,,,,,,,,,,Charlotte Hornets,,,,,1407.9217763424385,1127.6843862010323,1,0,,,,,0,,,0,,,0,,,0,,,0,,,0,0.6628758021547259,7.696176528930664,219.51710510253906,0.6824012994766235,5.535866586310796,109.805903349658,0.526552140712738,2.1603099426198673,109.71120175288105,0.5909397602081299,2.607396990011315,54.54192524289976,0.6193361878395081,2.928469596299481,55.26397810675824,0.5346803069114685,1.405862074664928,55.46111311299927,0.47552910447120667,0.7544478679549392,54.25008863988178
2026-03-08,,,,,,,,,,,,,,,,,New Orleans Pelicans,,,,,,,,,,,,,,,,,,,,Washington Wizards,,,,,1225.8323959161714,1151.8858787418574,1,0,,,,,0,,,0,,,0,,,0,,,0,,,0,0.5535254295160066,2.708927869796753,223.3116912841797,0.5796682834625244,2.670773791743728,113.0423092983359,0.45819345116615295,0.03815407805302538,110.26938198584378,0.5156756639480591,0.8795410848504108,56.320511619162964,0.5576573610305786,1.791232706893317,56.72179767917293,0.46828916668891907,0.08528150442075846,55.13110564199611,0.4285924434661865,-0.04712742636773309,55.13827634384767
2026-03-08,,,,,,,,,,,,,,,,,Portland Trail Blazers,,,,,,,,,,,,,,,,,,,,Indiana Pacers,,,,,1538.5027821186084,1677.5706123838518,1,0,,,,,0,,,0,,,0,,,0,,,0,,,0,0.4529967029714843,-1.6668808460235596,224.0796661376953,0.4982113838195801,-0.085317032417142,113.05944832410032,0.39934241771698,-1.5815638136064176,111.02021781359501,0.43409043550491333,-0.52770365721806,56.29197020069391,0.4893297255039215,0.442386624800918,56.76747812340641,0.40510013699531555,-1.1673748973198559,56.280570763449994,0.4125468134880066,-0.4141889162865618,54.73964705014502
2026-03-08,,,,,,,,,,,,,,,,,Toronto Raptors,,,,,,,,,,,,,,,,,,,,Dallas Mavericks,,,,,1296.4917174840082,1345.1752215638398,1,0,,,,,0,,,0,,,0,,,0,,,0,,,0,0.5035673893733617,0.5941858291625977,222.40164184570312,0.5333526134490967,1.2549828209889589,112.49963641785808,0.4450247585773468,-0.6607969918263611,109.90200542784504,0.460180401802063,0.10020773772100017,55.80450408037959,0.5154111385345459,1.1547750832679586,56.6951323374785,0.4670172333717346,-0.3670296497184703,55.162630586718834,0.4164154529571533,-0.2937673421078908,54.7393748411262
2026-03-08,,,,,,,,,,,,,,,,,Sacramento Kings,,,,,,,,,,,,,,,,,,,,Chicago Bulls,,,,,1497.9102461251282,1633.1478293875864,1,0,,,,,0,,,0,,,0,,,0,,,0,,,0,0.4591620007540809,-1.461496114730835,226.07510375976562,0.5080194473266602,0.11340911840796841,114.04382018898329,0.4060233533382416,-1.5749052331388034,112.03128357078234,0.44073763489723206,-0.5192677838416573,56.55230388129811,0.5003240704536438,0.6326769022496257,57.49151630768519,0.39995068311691284,-1.1923241004885736,56.2865573772463,0.4161633551120758,-0.38258113265022975,55.74472619353603
2026-03-08,,,,,,,,,,,,,,,,,Miami Heat,,,,,,,,,,,,,,,,,,,,Detroit Pistons,,,,,1526.1290915477284,1548.5405304583608,1,0,,,,,0,,,0,,,0,,,0,,,0,,,0,0.5266699516560819,1.556714653968811,230.88442993164062,0.5631116628646851,1.7716763967553528,117.39700255831535,0.4651345908641815,-0.2149617427865419,113.48742737332529,0.47887206077575684,0.4106549534415741,58.75922765866701,0.5272919535636902,1.3610214433137788,58.63777489964834,0.46663761138916016,-0.2825444277295694,57.14313680601804,0.43660181760787964,0.0675826849430275,56.34429056730724
2026-03-08,,,,,,,,,,,,,,,,,San Antonio Spurs,,,,,,,,,,,,,,,,,,,,Houston Rockets,,,,,1372.426501371599,1582.2865289306442,1,0,,,,,0,,,0,,,0,,,0,,,0,,,0,0.4105583226772353,-3.4724180698394775,227.47640991210938,0.4504888653755188,-1.2657369886076595,114.17718872524128,0.37685734033584595,-2.206681081231818,113.2992211868681,0.4050185978412628,-1.1140961706656332,57.015409187754194,0.45719003677368164,-0.15164081794202636,57.16177953748709,0.39386022090911865,-1.4974135748474644,57.51318614573931,0.3906707763671875,-0.7092675063843534,55.786035041128784
2026-03-08,,,,,,,,,,,,,,,,,Los Angeles Lakers,,,,,,,,,,,,,,,,,,,,New York Knicks,,,,,1581.6307699022973,1527.0879410236441,1,0,,,,,0,,,0,,,0,,,0,,,0,,,0,0.5667029685262646,3.1845712661743164,222.15792846679688,0.6019698977470398,2.9763833552820804,113.19562043110483,0.4823603928089142,0.20818791089223604,108.96230803569208,0.5100185871124268,0.9000400920049982,55.868538794551945,0.5663678646087646,2.0763432632770824,57.32708163655288,0.4768707752227783,0.01668125642376915,54.931949968591276,0.4468843936920166,0.19150665446846687,54.03035806710079
