mostgood1/WNBA-Betting/data/processed/games_predictions_npu_2025-11-14.csv
date,game_id,home_ot1,home_ot10,home_ot2,home_ot3,home_ot4,home_ot5,home_ot6,home_ot7,home_ot8,home_ot9,home_pts,home_q1,home_q2,home_q3,home_q4,home_team,home_win,margin,season,total_points,visitor_ot1,visitor_ot10,visitor_ot2,visitor_ot3,visitor_ot4,visitor_ot5,visitor_ot6,visitor_ot7,visitor_ot8,visitor_ot9,visitor_pts,visitor_q1,visitor_q2,visitor_q3,visitor_q4,visitor_team,home_h1,home_h2,visitor_h1,visitor_h2,home_elo,visitor_elo,is_home,target_home_win,target_margin,target_total,target_h1_margin,target_h1_total,target_h1_home_win,target_h2_margin,target_h2_total,target_h2_home_win,target_q1_margin,target_q1_total,target_q1_home_win,target_q2_margin,target_q2_total,target_q2_home_win,target_q3_margin,target_q3_total,target_q3_home_win,target_q4_margin,target_q4_total,target_q4_home_win,win_prob,spread_margin,totals,halves_h1_win,halves_h1_margin,halves_h1_total,halves_h2_win,halves_h2_margin,halves_h2_total,quarters_q1_win,quarters_q1_margin,quarters_q1_total,quarters_q2_win,quarters_q2_margin,quarters_q2_total,quarters_q3_win,quarters_q3_margin,quarters_q3_total,quarters_q4_win,quarters_q4_margin,quarters_q4_total
2025-11-14,,,,,,,,,,,,,,,,,Orlando Magic,,,,,,,,,,,,,,,,,,,,Brooklyn Nets,,,,,1613.2989140138604,1232.3041632733696,1,0,,,,,0,,,0,,,0,,,0,,,0,,,0,0.7701072798725768,10.898541450500488,222.97567749023438,1.0,6.792791269357697,112.24790472254412,1.0,4.10575018114279,110.72777276769025,1.0,3.501038599510525,55.87384534381659,1.0,3.291752669847172,56.37405937872752,1.0,2.3533936087025142,56.06023983243327,1.0,1.7523565724402763,54.667532935256986
2025-11-14,,,,,,,,,,,,,,,,,Dallas Mavericks,,,,,,,,,,,,,,,,,,,,Los Angeles Clippers,,,,,1345.1752215638398,1809.8047447381302,1,0,,,,,0,,,0,,,0,,,0,,,0,,,0,0.24235132424154165,-10.000088691711426,228.0110626220703,0.0,-4.911111485357014,115.28322318798837,0.0,-5.0889772063544125,112.72783943408191,0.0,-3.2678594563161627,57.10319736700603,0.0,-1.6432520290408517,58.180025820982344,0.0,-3.694902904090102,56.77807929873405,0.0,-1.3940743022643103,55.94976013534787
2025-11-14,,,,,,,,,,,,,,,,,Milwaukee Bucks,,,,,,,,,,,,,,,,,,,,Charlotte Hornets,,,,,1704.6191810793111,1127.6843862010323,1,0,,,,,0,,,0,,,0,,,0,,,0,,,0,0.8324343405982846,15.938413619995117,227.97886657714844,1.0,9.271630990750666,114.95496409974608,1.0,6.666782629244452,113.02390247740234,1.0,4.9472178000618685,57.463782526344055,1.0,4.324413190688798,57.491181573402024,1.0,4.1720554360936974,57.47055674260268,1.0,2.4947271931507538,55.55334573479966
2025-11-14,,,,,,,,,,,,,,,,,Houston Rockets,,,,,,,,,,,,,,,,,,,,Portland Trail Blazers,,,,,1582.2865289306442,1538.5027821186084,1,0,,,,,0,,,0,,,0,,,0,,,0,,,0,0.6429112693361132,2.5846219062805176,227.72056579589844,1.0,2.2218070737175464,115.05306389106966,1.0,0.3628148325629713,112.66750190482878,1.0,0.6234996188358836,57.83672763333008,1.0,1.5983074548816627,57.216336257739584,0.0,-0.0689113653121215,57.34939571309944,0.0,0.4317261978750928,55.318106191729335
2025-11-14,,,,,,,,,,,,,,,,,New Orleans Pelicans,,,,,,,,,,,,,,,,,,,,Los Angeles Lakers,,,,,1225.8323959161714,1581.6307699022973,1,0,,,,,0,,,0,,,0,,,0,,,0,,,0,0.28119501895002535,-7.34975528717041,228.9568634033203,0.0,-3.5617316211491494,116.3432046420586,0.0,-3.7880236660212603,112.61365876126172,0.0,-2.5117772823428157,57.715764223596416,0.0,-1.0499543388063337,58.627440418462186,0.0,-2.741792106194328,56.60676340411166,0.0,-1.0462315598269327,56.00689535715006
2025-11-14,,,,,,,,,,,,,,,,,San Antonio Spurs,,,,,,,,,,,,,,,,,,,,Golden State Warriors,,,,,1372.426501371599,1640.370824901381,1,0,,,,,0,,,0,,,0,,,0,,,0,,,0,0.323705475564422,-4.634428024291992,225.3069610595703,0.0,-2.2010824627216854,112.840878601528,0.0,-2.4333455615703072,112.46608245804231,0.0,-1.7342715343233874,56.297631550286894,0.0,-0.46681092839829774,56.54324705124111,0.0,-1.8484963191349901,57.6047693570022,0.0,-0.584849242435317,54.8613131010401
2025-11-14,,,,,,,,,,,,,,,,,Minnesota Timberwolves,,,,,,,,,,,,,,,,,,,,Sacramento Kings,,,,,1706.5427395475638,1497.9102461251282,1,0,,,,,0,,,0,,,0,,,0,,,0,,,0,0.714712683872252,7.0813446044921875,226.89027404785156,1.0,4.711062674560738,115.12410238285867,1.0,2.3702819299314495,111.76617166499287,1.0,2.1026687081260347,57.30664745629812,1.0,2.6083939664347033,57.817454926560536,1.0,1.1625414601851112,56.346461181188204,1.0,1.207740469746338,55.41971048380467
2025-11-14,,,,,,,,,,,,,,,,,New York Knicks,,,,,,,,,,,,,,,,,,,,Miami Heat,,,,,1527.0879410236441,1526.1290915477284,1,0,,,,,0,,,0,,,0,,,0,,,0,,,0,0.6267252698139356,1.6059086322784424,228.24769592285156,1.0,2.0327267698772173,116.49576979947503,0.0,-0.4268181375987748,111.75192612337656,1.0,0.47219540477390076,58.149069624738225,1.0,1.5605313651033164,58.3467001747368,0.0,-0.83394096230386,56.50032007106528,0.0,0.40712282470508515,55.25160605231129
2025-11-14,,,,,,,,,,,,,,,,,Detroit Pistons,,,,,,,,,,,,,,,,,,,,Philadelphia 76ers,,,,,1548.5405304583608,1151.8218820862296,1,0,,,,,0,,,0,,,0,,,0,,,0,,,0,0.7716591267082318,11.012439727783203,230.71029663085938,1.0,7.071777460722151,117.10464822727067,1.0,3.940662267061051,113.60564840358873,1.0,3.4188498742802027,58.67467734740839,1.0,3.6529275864419484,58.429970879862275,1.0,2.2700061169247094,57.2502475732369,1.0,1.670656150136342,56.355400830351826
