mostgood1/WNBA-Betting/data/processed/games_predictions_npu_2026-02-20.csv
date,game_id,home_ot1,home_ot10,home_ot2,home_ot3,home_ot4,home_ot5,home_ot6,home_ot7,home_ot8,home_ot9,home_pts,home_q1,home_q2,home_q3,home_q4,home_team,home_win,margin,season,total_points,visitor_ot1,visitor_ot10,visitor_ot2,visitor_ot3,visitor_ot4,visitor_ot5,visitor_ot6,visitor_ot7,visitor_ot8,visitor_ot9,visitor_pts,visitor_q1,visitor_q2,visitor_q3,visitor_q4,visitor_team,home_h1,home_h2,visitor_h1,visitor_h2,home_elo,visitor_elo,is_home,target_home_win,target_margin,target_total,target_h1_margin,target_h1_total,target_h1_home_win,target_h2_margin,target_h2_total,target_h2_home_win,target_q1_margin,target_q1_total,target_q1_home_win,target_q2_margin,target_q2_total,target_q2_home_win,target_q3_margin,target_q3_total,target_q3_home_win,target_q4_margin,target_q4_total,target_q4_home_win,win_prob,spread_margin,totals,halves_h1_win,halves_h1_margin,halves_h1_total,halves_h2_win,halves_h2_margin,halves_h2_total,quarters_q1_win,quarters_q1_margin,quarters_q1_total,quarters_q2_win,quarters_q2_margin,quarters_q2_total,quarters_q3_win,quarters_q3_margin,quarters_q3_total,quarters_q4_win,quarters_q4_margin,quarters_q4_total
2026-02-20,,,,,,,,,,,,,,,,,Charlotte Hornets,,,,,,,,,,,,,,,,,,,,Cleveland Cavaliers,,,,,1127.6843862010323,1693.6615563736723,1,0,,,,,0,,,0,,,0,,,0,,,0,,,0,0.23277717125724245,-12.706178665161133,223.83331298828125,0.270127534866333,-6.208361054329064,113.04200311797902,0.24173420667648315,-6.49781761083207,110.79130987030223,0.2831265926361084,-4.0224501479001,56.32409505544684,0.3443945050239563,-2.1859109064289637,56.717908062532175,0.2622590661048889,-4.358930349486888,55.77398540146271,0.3238462507724762,-2.1388872613451815,55.01732446883952
2026-02-20,,,,,,,,,,,,,,,,,Atlanta Hawks,,,,,,,,,,,,,,,,,,,,Miami Heat,,,,,1522.3022112738163,1526.1290915477284,1,0,,,,,0,,,0,,,0,,,0,,,0,,,0,0.54226803788527,2.137235403060913,233.05560302734375,0.5794532299041748,2.2973169398430335,118.21220427767437,0.4816898703575134,-0.16008153678212053,114.84339874966938,0.4944147765636444,0.4760428745190477,59.072405725762714,0.5456610321998596,1.8212740653239858,59.13979855191166,0.4611845314502716,-0.35432902622744145,58.11978810846119,0.4505540132522583,0.19424748944532091,56.72361064120818
2026-02-20,,,,,,,,,,,,,,,,,Portland Trail Blazers,,,,,,,,,,,,,,,,,,,,Denver Nuggets,,,,,1538.5027821186084,1610.9867508691182,1,0,,,,,0,,,0,,,0,,,0,,,0,,,0,0.48881478746182455,-0.11402702331542969,225.14849853515625,0.529474675655365,0.20019318145239434,114.56801428635845,0.4237772524356842,-0.31422020476782403,110.5804842487978,0.46154823899269104,-0.03222202920028075,57.40468689096057,0.5103846192359924,0.2324152106526751,57.163327395397886,0.4212011396884918,-0.2587313169002704,56.418723421242774,0.43265628814697266,-0.05548888786755362,54.16176082755503
2026-02-20,,,,,,,,,,,,,,,,,Los Angeles Lakers,,,,,,,,,,,,,,,,,,,,Los Angeles Clippers,,,,,1581.6307699022973,1809.8047447381302,1,0,,,,,0,,,0,,,0,,,0,,,0,,,0,0.4111595687490754,-3.552227735519409,227.41021728515625,0.4584255814552307,-1.0845881192429991,115.26692960603823,0.3827301859855652,-2.4676396162764105,112.143287679118,0.40462085604667664,-1.2249939416071862,56.87131467094414,0.46720823645591736,0.1404058223641871,58.395614935094095,0.3780766725540161,-1.8288639183983093,56.555189375316374,0.4056353271007538,-0.6387756978781011,55.58809830380163
2026-02-20,,,,,,,,,,,,,,,,,Washington Wizards,,,,,,,,,,,,,,,,,,,,Indiana Pacers,,,,,1151.8858787418574,1677.5706123838518,1,0,,,,,0,,,0,,,0,,,0,,,0,,,0,0.2508729156130958,-11.588550567626953,223.1405487060547,0.289337694644928,-5.632236348601302,112.84956984724863,0.2569493055343628,-5.956314219025651,110.29097885880603,0.2946765422821045,-3.6659425445901372,55.9658810114657,0.3564301133155823,-1.9662938040111648,56.883688835782934,0.2780246138572693,-4.014127371743861,55.3120571590125,0.3337832987308502,-1.9421868472817903,54.97892169979354
2026-02-20,,,,,,,,,,,,,,,,,Oklahoma City Thunder,,,,,,,,,,,,,,,,,,,,Brooklyn Nets,,,,,1831.1771861350628,1232.3041632733696,1,0,,,,,0,,,0,,,0,,,0,,,0,,,0,0.811452348328742,16.240177154541016,228.22158813476562,0.8210415244102478,10.305011075208515,115.5575519785746,0.6786215305328369,5.935166079332502,112.66403615619106,0.709699809551239,5.158831994767027,57.42035922079319,0.7257442474365234,5.146179080441488,58.1371927577814,0.6531550884246826,3.753747570210871,57.26160210940739,0.5590401291847229,2.181418509121631,55.40243404678366
2026-02-20,,,,,,,,,,,,,,,,,New Orleans Pelicans,,,,,,,,,,,,,,,,,,,,Milwaukee Bucks,,,,,1225.8323959161714,1704.6191810793111,1,0,,,,,0,,,0,,,0,,,0,,,0,,,0,0.2714467286807471,-10.432378768920898,231.0506591796875,0.3144170641899109,-4.80170716363427,116.94149942960776,0.2746300995349884,-5.630671605286628,114.10915975007973,0.31895262002944946,-3.3676654559046564,58.63697007184206,0.37725138664245605,-1.4340417077296135,58.3045293577657,0.2797895669937134,-3.8528090344522274,57.77014042037478,0.34461358189582825,-1.777862570834401,56.33901932970495
2026-02-20,,,,,,,,,,,,,,,,,Minnesota Timberwolves,,,,,,,,,,,,,,,,,,,,Dallas Mavericks,,,,,1706.5427395475638,1345.1752215638398,1,0,,,,,0,,,0,,,0,,,0,,,0,,,0,0.7204727953945429,10.621699333190918,222.80059814453125,0.7323640584945679,6.7993055385933845,112.9431518227787,0.6016770601272583,3.8223937945975335,109.85744632175253,0.6211344003677368,3.37129228784464,56.15281966302981,0.6497176885604858,3.4280132507487444,56.790332159748885,0.5955769419670105,2.4217708318098694,55.2409736854339,0.5127030611038208,1.4006229627876638,54.61647263631863
2026-02-20,,,,,,,,,,,,,,,,,Memphis Grizzlies,,,,,,,,,,,,,,,,,,,,Utah Jazz,,,,,1489.9859410623828,1223.8102860635088,1,0,,,,,0,,,0,,,0,,,0,,,0,,,0,0.670113724457172,8.135404586791992,234.0699920654297,0.691146731376648,5.485664878324483,117.19914683215531,0.5533750057220459,2.64973970846751,116.8708452332744,0.5890194773674011,2.75147475456083,58.592022813796504,0.6042287945747375,2.734190123763653,58.6071240183588,0.5482367277145386,1.5221545963760266,59.20070309282718,0.5017154216766357,1.127585112091483,57.67014214044721
