mostgood1/WNBA-Betting/data/processed/games_predictions_npu_2026-03-05.csv
date,game_id,home_ot1,home_ot10,home_ot2,home_ot3,home_ot4,home_ot5,home_ot6,home_ot7,home_ot8,home_ot9,home_pts,home_q1,home_q2,home_q3,home_q4,home_team,home_win,margin,season,total_points,visitor_ot1,visitor_ot10,visitor_ot2,visitor_ot3,visitor_ot4,visitor_ot5,visitor_ot6,visitor_ot7,visitor_ot8,visitor_ot9,visitor_pts,visitor_q1,visitor_q2,visitor_q3,visitor_q4,visitor_team,home_h1,home_h2,visitor_h1,visitor_h2,home_elo,visitor_elo,is_home,target_home_win,target_margin,target_total,target_h1_margin,target_h1_total,target_h1_home_win,target_h2_margin,target_h2_total,target_h2_home_win,target_q1_margin,target_q1_total,target_q1_home_win,target_q2_margin,target_q2_total,target_q2_home_win,target_q3_margin,target_q3_total,target_q3_home_win,target_q4_margin,target_q4_total,target_q4_home_win,win_prob,spread_margin,totals,halves_h1_win,halves_h1_margin,halves_h1_total,halves_h2_win,halves_h2_margin,halves_h2_total,quarters_q1_win,quarters_q1_margin,quarters_q1_total,quarters_q2_win,quarters_q2_margin,quarters_q2_total,quarters_q3_win,quarters_q3_margin,quarters_q3_total,quarters_q4_win,quarters_q4_margin,quarters_q4_total
2026-03-05,,,,,,,,,,,,,,,,,Miami Heat,,,,,,,,,,,,,,,,,,,,Brooklyn Nets,,,,,1526.1290915477284,1232.3041632733696,1,0,,,,,0,,,0,,,0,,,0,,,0,,,0,0.6913251587038617,9.074788093566895,227.07640075683594,0.7089434266090393,5.953278736753147,115.41142126117123,0.5806557536125183,3.1215093568137484,111.66497949566472,0.5994885563850403,2.8261308200563366,57.58621828659956,0.6324597001075745,3.12714791669681,57.82520297457166,0.5732011795043945,1.9847482523609117,56.43427191792639,0.4942489266395569,1.1367611044528367,55.230707577738336
2026-03-05,,,,,,,,,,,,,,,,,Orlando Magic,,,,,,,,,,,,,,,,,,,,Dallas Mavericks,,,,,1613.2989140138604,1345.1752215638398,1,0,,,,,0,,,0,,,0,,,0,,,0,,,0,0.6731023273543124,8.184374809265137,218.931396484375,0.6935775279998779,5.562528118639351,110.44345488138427,0.5517352819442749,2.6218466906257856,108.48794160299076,0.5833010077476501,2.6785906227355887,54.84930074706511,0.6196089386940002,2.883937495903762,55.59415413431916,0.5575007200241089,1.6429721885926336,54.5672010116342,0.4881593883037567,0.9788745020331517,53.920740591356555
2026-03-05,,,,,,,,,,,,,,,,,San Antonio Spurs,,,,,,,,,,,,,,,,,,,,Detroit Pistons,,,,,1372.426501371599,1548.5405304583608,1,0,,,,,0,,,0,,,0,,,0,,,0,,,0,0.4274525861251009,-2.733994722366333,229.01058959960938,0.4696636199951172,-0.7298919606192023,114.9495005505027,0.38437026739120483,-2.0041027617471308,114.06108904910667,0.4204707741737366,-0.8593211921924696,57.185012101290525,0.47048261761665344,0.1294292315732673,57.76448844921219,0.3941423296928406,-1.416774241171203,57.56213174748085,0.4007551968097687,-0.5873285205759275,56.49895730162583
2026-03-05,,,,,,,,,,,,,,,,,Washington Wizards,,,,,,,,,,,,,,,,,,,,Utah Jazz,,,,,1151.8858787418574,1223.8102860635088,1,0,,,,,0,,,0,,,0,,,0,,,0,,,0,0.46208404647434553,-1.1093981266021729,229.20240783691406,0.5054401755332947,0.28333274882978265,114.9779378126038,0.37625664472579956,-1.3927308754319556,114.22447002431024,0.45779553055763245,-0.10904732221675871,57.310116246217156,0.48534202575683594,0.3923800710465414,57.66782156638664,0.39502257108688354,-1.0343016801193325,57.18014506222886,0.41547542810440063,-0.358429195312623,57.044324962081376
2026-03-05,,,,,,,,,,,,,,,,,Denver Nuggets,,,,,,,,,,,,,,,,,,,,Los Angeles Lakers,,,,,1610.9867508691182,1581.6307699022973,1,0,,,,,0,,,0,,,0,,,0,,,0,,,0,0.5508481180917181,2.480597496032715,227.0821533203125,0.5896982550621033,2.7682733723694763,116.27022049698371,0.470713347196579,-0.2876758763367612,110.81193282332877,0.5054683685302734,0.6549422322041198,57.70286880374398,0.560100793838501,2.1133311401653563,58.56735169323972,0.4570004642009735,-0.36343401104168893,56.14988833280105,0.4434063732624054,0.07575813470492769,54.66204449052773
2026-03-05,,,,,,,,,,,,,,,,,Phoenix Suns,,,,,,,,,,,,,,,,,,,,Chicago Bulls,,,,,1407.9217763424385,1633.1478293875864,1,0,,,,,0,,,0,,,0,,,0,,,0,,,0,0.39474256058133683,-4.313365936279297,224.4748077392578,0.44737592339515686,-1.1180933766085068,112.1963425606851,0.3460593819618225,-3.1952725596707903,112.27846517857273,0.40828073024749756,-1.3439646655987134,55.845394995763705,0.4667918086051941,0.22587128899020667,56.35094756492139,0.3447495698928833,-2.2829516345022642,56.676704003146504,0.3916761875152588,-0.9123209251685261,55.60176117542623
2026-03-05,,,,,,,,,,,,,,,,,Minnesota Timberwolves,,,,,,,,,,,,,,,,,,,,Toronto Raptors,,,,,1706.5427395475638,1296.4917174840082,1,0,,,,,0,,,0,,,0,,,0,,,0,,,0,0.740260396056975,11.624146461486816,225.81460571289062,0.7626341581344604,8.021704211481481,114.21412747307485,0.6028383374214172,3.6024422500053355,111.60047823981577,0.6488265991210938,3.720828457873532,56.927670401962125,0.6759681701660156,4.300875753607949,57.28645707111272,0.5750735402107239,2.1286953533919815,56.15960850213384,0.5256814360618591,1.4737468966133542,55.44086973768193
2026-03-05,,,,,,,,,,,,,,,,,Sacramento Kings,,,,,,,,,,,,,,,,,,,,New Orleans Pelicans,,,,,1497.9102461251282,1225.8323959161714,1,0,,,,,0,,,0,,,0,,,0,,,0,,,0,0.6715554065862619,8.158040046691895,225.68580627441406,0.690974235534668,5.511547389101748,114.36125339247273,0.5503668785095215,2.646492657590146,111.32455288194132,0.5880087614059448,2.7159222160807097,56.83205008235937,0.6116703748703003,2.795625173021038,57.52920331011336,0.5541306734085083,1.6493233127426243,55.9534631928082,0.48902517557144165,0.997169344847522,55.37108968913311
2026-03-05,,,,,,,,,,,,,,,,,Houston Rockets,,,,,,,,,,,,,,,,,,,,Golden State Warriors,,,,,1582.2865289306442,1640.370824901381,1,0,,,,,0,,,0,,,0,,,0,,,0,,,0,0.4958547256132148,0.07331442832946777,224.97544860839844,0.5371777415275574,-0.2625067182576528,113.52770795546297,0.42938923835754395,0.33582114658712064,111.44774065293548,0.47387930750846863,0.058975992527996596,56.958099399585436,0.5337370038032532,-0.32148271078564944,56.56960855587754,0.41747069358825684,0.2450160184582546,57.02191276385243,0.4189934730529785,0.09080512812886604,54.42582788908305
