mostgood1/WNBA-Betting/data/processed/games_predictions_npu_2025-11-26.csv
date,game_id,home_ot1,home_ot10,home_ot2,home_ot3,home_ot4,home_ot5,home_ot6,home_ot7,home_ot8,home_ot9,home_pts,home_q1,home_q2,home_q3,home_q4,home_team,home_win,margin,season,total_points,visitor_ot1,visitor_ot10,visitor_ot2,visitor_ot3,visitor_ot4,visitor_ot5,visitor_ot6,visitor_ot7,visitor_ot8,visitor_ot9,visitor_pts,visitor_q1,visitor_q2,visitor_q3,visitor_q4,visitor_team,home_h1,home_h2,visitor_h1,visitor_h2,home_elo,visitor_elo,is_home,target_home_win,target_margin,target_total,target_h1_margin,target_h1_total,target_h1_home_win,target_h2_margin,target_h2_total,target_h2_home_win,target_q1_margin,target_q1_total,target_q1_home_win,target_q2_margin,target_q2_total,target_q2_home_win,target_q3_margin,target_q3_total,target_q3_home_win,target_q4_margin,target_q4_total,target_q4_home_win,win_prob,spread_margin,totals,halves_h1_win,halves_h1_margin,halves_h1_total,halves_h2_win,halves_h2_margin,halves_h2_total,quarters_q1_win,quarters_q1_margin,quarters_q1_total,quarters_q2_win,quarters_q2_margin,quarters_q2_total,quarters_q3_win,quarters_q3_margin,quarters_q3_total,quarters_q4_win,quarters_q4_margin,quarters_q4_total
2025-11-26,,,,,,,,,,,,,,,,,Portland Trail Blazers,,,,,,,,,,,,,,,,,,,,San Antonio Spurs,,,,,1538.5027821186084,1372.426501371599,1,0,,,,,0,,,0,,,0,,,0,,,0,,,0,0.6918448429148386,5.610718727111816,225.69500732421875,1.0,3.9271667449863688,113.1793982312839,1.0,1.6835519821254477,112.51560909293488,1.0,1.7843110072020023,56.49460804871844,1.0,2.1428557377843664,56.68479018256546,1.0,0.7528231741376897,57.24656909802801,1.0,0.9307288079877579,55.269039994906876
2025-11-26,,,,,,,,,,,,,,,,,Charlotte Hornets,,,,,,,,,,,,,,,,,,,,New York Knicks,,,,,1127.6843862010323,1527.0879410236441,1,0,,,,,0,,,0,,,0,,,0,,,0,,,0,0.26203405651415995,-8.63184928894043,221.7728271484375,0.0,-4.227941180493578,112.0699546948185,0.0,-4.403908108446851,109.70287245361902,0.0,-2.83732759979714,55.545476938009905,0.0,-1.390613580696438,56.5244777568086,0.0,-3.091331162322391,55.375174072257366,0.0,-1.3125769461244603,54.32769838136165
2025-11-26,,,,,,,,,,,,,,,,,Miami Heat,,,,,,,,,,,,,,,,,,,,Milwaukee Bucks,,,,,1526.1290915477284,1704.6191810793111,1,0,,,,,0,,,0,,,0,,,0,,,0,,,0,0.36637063830788746,-2.022536039352417,233.62498474121094,0.0,-0.7493146948660823,118.92592585225046,0.0,-1.2732213444863347,114.69905888896051,0.0,-0.8470617225187492,59.85428412818817,0.0,0.09774702765266692,59.07164172406228,0.0,-1.1675308811409988,58.34046924897323,0.0,-0.10569046334533595,56.35858963998727
2025-11-26,,,,,,,,,,,,,,,,,Golden State Warriors,,,,,,,,,,,,,,,,,,,,Houston Rockets,,,,,1640.370824901381,1582.2865289306442,1,0,,,,,0,,,0,,,0,,,0,,,0,,,0,0.6543475803049952,3.2811455726623535,226.01116943359375,1.0,2.323849658278567,113.99539090730099,1.0,0.9572959143837867,112.01577852629273,1.0,1.0412155972918207,57.23768869583297,1.0,1.2826340609867461,56.75770221146802,0.0,0.2868452374410643,57.480545693639215,0.0,0.6704506769427223,54.53523283265351
2025-11-26,,,,,,,,,,,,,,,,,Sacramento Kings,,,,,,,,,,,,,,,,,,,,Phoenix Suns,,,,,1497.9102461251282,1407.9217763424385,1,0,,,,,0,,,0,,,0,,,0,,,0,,,0,0.6673942307854852,4.082581996917725,223.40322875976562,1.0,2.605642702845499,112.41265929321783,1.0,1.476939294072226,110.99056946654781,1.0,1.1686357148225592,55.9065717405281,1.0,1.43700698802294,56.50608755268973,1.0,0.7584788276401836,56.19993337833465,0.0,0.7184604664320422,54.790636088213155
2025-11-26,,,,,,,,,,,,,,,,,Oklahoma City Thunder,,,,,,,,,,,,,,,,,,,,Minnesota Timberwolves,,,,,1831.1771861350628,1706.5427395475638,1,0,,,,,0,,,0,,,0,,,0,,,0,,,0,0.685035900056029,5.18117094039917,230.63111877441406,1.0,3.687393084563876,116.95195558329334,1.0,1.4937778558352934,113.67916319112076,1.0,1.3920584140216874,58.3847558078093,1.0,2.295334670542189,58.56719977548404,1.0,0.6115283088652133,57.719921553447044,0.0,0.8822495469700801,55.95924163767372
2025-11-26,,,,,,,,,,,,,,,,,Toronto Raptors,,,,,,,,,,,,,,,,,,,,Indiana Pacers,,,,,1296.4917174840082,1677.5706123838518,1,0,,,,,0,,,0,,,0,,,0,,,0,,,0,0.2834920784628268,-7.198877334594727,228.23004150390625,0.0,-3.875474996721019,115.18020113221516,0.0,-3.323402337873707,113.04984037169109,0.0,-2.474759027646798,57.18354756389959,0.0,-1.400715969074221,57.99665356831558,0.0,-2.4212989421335407,57.03994381729683,0.0,-0.9021033957401664,56.00989655439426
2025-11-26,,,,,,,,,,,,,,,,,New Orleans Pelicans,,,,,,,,,,,,,,,,,,,,Memphis Grizzlies,,,,,1225.8323959161714,1489.9859410623828,1,0,,,,,0,,,0,,,0,,,0,,,0,,,0,0.31356209082978426,-5.269342422485352,230.77386474609375,0.0,-2.135044090458065,116.66438566706466,0.0,-3.134298332027287,114.10947907902903,0.0,-1.7843527647600932,58.343763830313215,0.0,-0.3506913256979721,58.32062183675146,0.0,-2.348693713515108,57.7245536713013,0.0,-0.7856046185121788,56.38492540772773
2025-11-26,,,,,,,,,,,,,,,,,Boston Celtics,,,,,,,,,,,,,,,,,,,,Detroit Pistons,,,,,1729.0894090837962,1548.5405304583608,1,0,,,,,0,,,0,,,0,,,0,,,0,,,0,0.6999544029803353,6.126989364624023,223.86741638183594,1.0,4.253989306600651,112.61290550564757,1.0,1.8730000580233717,111.25451087618833,1.0,2.061457551783838,56.44651834777016,1.0,2.1925317548168133,56.166387157877416,1.0,0.7736496042700145,56.30510636170915,1.0,1.0993504537533572,54.94940451447918
