mostgood1/WNBA-Betting/data/processed/games_predictions_npu_2025-11-21.csv
date,game_id,home_ot1,home_ot10,home_ot2,home_ot3,home_ot4,home_ot5,home_ot6,home_ot7,home_ot8,home_ot9,home_pts,home_q1,home_q2,home_q3,home_q4,home_team,home_win,margin,season,total_points,visitor_ot1,visitor_ot10,visitor_ot2,visitor_ot3,visitor_ot4,visitor_ot5,visitor_ot6,visitor_ot7,visitor_ot8,visitor_ot9,visitor_pts,visitor_q1,visitor_q2,visitor_q3,visitor_q4,visitor_team,home_h1,home_h2,visitor_h1,visitor_h2,home_elo,visitor_elo,is_home,target_home_win,target_margin,target_total,target_h1_margin,target_h1_total,target_h1_home_win,target_h2_margin,target_h2_total,target_h2_home_win,target_q1_margin,target_q1_total,target_q1_home_win,target_q2_margin,target_q2_total,target_q2_home_win,target_q3_margin,target_q3_total,target_q3_home_win,target_q4_margin,target_q4_total,target_q4_home_win,win_prob,spread_margin,totals,halves_h1_win,halves_h1_margin,halves_h1_total,halves_h2_win,halves_h2_margin,halves_h2_total,quarters_q1_win,quarters_q1_margin,quarters_q1_total,quarters_q2_win,quarters_q2_margin,quarters_q2_total,quarters_q3_win,quarters_q3_margin,quarters_q3_total,quarters_q4_win,quarters_q4_margin,quarters_q4_total
2025-11-21,,,,,,,,,,,,,,,,,Houston Rockets,,,,,,,,,,,,,,,,,,,,Denver Nuggets,,,,,1582.2865289306442,1610.9867508691182,1,0,,,,,0,,,0,,,0,,,0,,,0,,,0,0.6126971270114407,0.7620836496353149,231.84197998046875,1.0,1.4742181238596048,118.1962133034778,0.0,-0.7121344742242899,113.6457666769909,0.0,0.09993996650006064,59.36158452438598,1.0,1.3742781573595442,58.83462877909182,0.0,-0.93352406852423,57.96917374828987,0.0,0.22138959429994004,55.676592928701034
2025-11-21,,,,,,,,,,,,,,,,,Phoenix Suns,,,,,,,,,,,,,,,,,,,,Minnesota Timberwolves,,,,,1407.9217763424385,1706.5427395475638,1,0,,,,,0,,,0,,,0,,,0,,,0,,,0,0.3042286170429531,-5.860025405883789,224.7972869873047,0.0,-2.5250341639264646,112.98927067964522,0.0,-3.334991241957324,111.80801630765947,0.0,-1.965179895378119,56.454633528490184,0.0,-0.5598542685483457,56.53463715115503,0.0,-2.5136734295556917,56.62187553816095,0.0,-0.821317812401632,55.18614076949853
2025-11-21,,,,,,,,,,,,,,,,,Chicago Bulls,,,,,,,,,,,,,,,,,,,,Miami Heat,,,,,1633.1478293875864,1526.1290915477284,1,0,,,,,0,,,0,,,0,,,0,,,0,,,0,0.6762109551282809,4.62922477722168,231.951904296875,1.0,3.425659057715788,117.4633725195356,1.0,1.2035657195058922,114.48853177733939,1.0,1.3260721669333575,58.72925830639405,1.0,2.0995868907824304,58.73411421314154,0.0,0.34249172706919456,57.70924481412335,1.0,0.8610739924366976,56.77928696321604
2025-11-21,,,,,,,,,,,,,,,,,Utah Jazz,,,,,,,,,,,,,,,,,,,,Oklahoma City Thunder,,,,,1223.8102860635088,1831.1771861350628,1,0,,,,,0,,,0,,,0,,,0,,,0,,,0,0.2032281834177405,-12.926465034484863,238.11181640625,0.0,-7.066567886095387,119.51480666741294,0.0,-5.859897148389476,118.59700973883704,0.0,-4.434790371220002,59.695521949671516,0.0,-2.6317775148753855,59.819284717741425,0.0,-4.063335106242189,60.11619922412392,0.0,-1.7965620421472872,58.48081051471313
2025-11-21,,,,,,,,,,,,,,,,,Boston Celtics,,,,,,,,,,,,,,,,,,,,Brooklyn Nets,,,,,1729.0894090837962,1232.3041632733696,1,0,,,,,0,,,0,,,0,,,0,,,0,,,0,0.8057426039381177,13.647253036499023,220.0995635986328,1.0,8.5375742314742,110.66995696268967,1.0,5.109678805024824,109.42960663594314,1.0,4.460873683755233,55.30021931420447,1.0,4.076700547718965,55.3697376484852,1.0,2.961468756727927,55.58353682001911,1.0,2.1482100482968978,53.84606981592404
2025-11-21,,,,,,,,,,,,,,,,,Cleveland Cavaliers,,,,,,,,,,,,,,,,,,,,Indiana Pacers,,,,,1693.6615563736723,1677.5706123838518,1,0,,,,,0,,,0,,,0,,,0,,,0,,,0,0.6371365680561136,2.2346293926239014,230.3121795654297,1.0,1.880970867091529,116.71698157019281,1.0,0.35365852553237215,113.59519799523684,1.0,0.563919983090089,58.18670922877466,1.0,1.31705088400144,58.530272341418154,0.0,-0.12865515687138673,57.38571039118528,0.0,0.4823136824037589,56.209487604051574
2025-11-21,,,,,,,,,,,,,,,,,Golden State Warriors,,,,,,,,,,,,,,,,,,,,Portland Trail Blazers,,,,,1640.370824901381,1538.5027821186084,1,0,,,,,0,,,0,,,0,,,0,,,0,,,0,0.6723511767618537,4.389364242553711,222.1675567626953,1.0,3.1723146650467298,111.92206601843046,1.0,1.2170495775069816,110.24549074426486,1.0,1.268762139073798,56.129938699122775,1.0,1.9035525259729318,55.79212731930769,1.0,0.44381963250117856,56.60082048749372,0.0,0.773229945005803,53.64467025677113
2025-11-21,,,,,,,,,,,,,,,,,Toronto Raptors,,,,,,,,,,,,,,,,,,,,Washington Wizards,,,,,1296.4917174840082,1151.8858787418574,1,0,,,,,0,,,0,,,0,,,0,,,0,,,0,0.686241823646733,5.257002353668213,223.50790405273438,1.0,3.1869075496841415,113.00725708739665,1.0,2.070094803984071,110.5006469653377,1.0,1.5515553566247942,56.26882047398113,1.0,1.6353521930593473,56.738436613415516,1.0,1.2028459235924926,55.42458732935014,0.0,0.8672488803915782,55.07605963598756
2025-11-21,,,,,,,,,,,,,,,,,Dallas Mavericks,,,,,,,,,,,,,,,,,,,,New Orleans Pelicans,,,,,1345.1752215638398,1225.8323959161714,1,0,,,,,0,,,0,,,0,,,0,,,0,,,0,0.6621302802763129,3.758237600326538,226.73175048828125,1.0,2.8105640535386422,114.88091978273812,1.0,0.9476735467878958,111.85083070554313,1.0,1.3348649490986475,57.13726893859563,1.0,1.4756991044399947,57.743650844142486,0.0,0.36624003800861465,56.151414906664975,0.0,0.5814335087792811,55.699415798878164
