mostgood1/WNBA-Betting/data/processed/games_predictions_npu_2025-10-26.csv
date,game_id,home_ot1,home_ot10,home_ot2,home_ot3,home_ot4,home_ot5,home_ot6,home_ot7,home_ot8,home_ot9,home_pts,home_q1,home_q2,home_q3,home_q4,home_team,home_win,margin,season,total_points,visitor_ot1,visitor_ot10,visitor_ot2,visitor_ot3,visitor_ot4,visitor_ot5,visitor_ot6,visitor_ot7,visitor_ot8,visitor_ot9,visitor_pts,visitor_q1,visitor_q2,visitor_q3,visitor_q4,visitor_team,home_h1,home_h2,visitor_h1,visitor_h2,home_elo,visitor_elo,is_home,target_home_win,target_margin,target_total,target_h1_margin,target_h1_total,target_h1_home_win,target_h2_margin,target_h2_total,target_h2_home_win,target_q1_margin,target_q1_total,target_q1_home_win,target_q2_margin,target_q2_total,target_q2_home_win,target_q3_margin,target_q3_total,target_q3_home_win,target_q4_margin,target_q4_total,target_q4_home_win,win_prob,spread_margin,totals,halves_h1_win,halves_h1_margin,halves_h1_total,halves_h2_win,halves_h2_margin,halves_h2_total,quarters_q1_win,quarters_q1_margin,quarters_q1_total,quarters_q2_win,quarters_q2_margin,quarters_q2_total,quarters_q3_win,quarters_q3_margin,quarters_q3_total,quarters_q4_win,quarters_q4_margin,quarters_q4_total
2025-10-26,,,,,,,,,,,,,,,,,Dallas Mavericks,,,,,,,,,,,,,,,,,,,,Toronto Raptors,,,,,1345.1752215638398,1296.4917174840082,1,0,,,,,0,,,0,,,0,,,0,,,0,,,0,0.6347002439771503,2.087261199951172,226.715576171875,1.0,2.260759215488168,114.82175243960128,0.0,-0.1734980155369959,111.89382373227373,1.0,0.6741159018983085,57.02833328770183,1.0,1.5866433135898594,57.79341915189945,0.0,-0.5600602047929913,56.17798842967095,0.0,0.38656218925599545,55.715835302602784
2025-10-26,,,,,,,,,,,,,,,,,Miami Heat,,,,,,,,,,,,,,,,,,,,New York Knicks,,,,,1526.1290915477284,1527.0879410236441,1,0,,,,,0,,,0,,,0,,,0,,,0,,,0,0.6386987137431464,2.3292081356048584,227.89466857910156,1.0,1.4486663839377758,116.25956391397679,1.0,0.8805417516670828,111.63510466512476,0.0,0.41425807388331465,58.06035711774823,1.0,1.0344083100544612,58.199206796228566,0.0,0.2796689095700225,56.50476927220613,0.0,0.6008728420970603,55.130335392918624
2025-10-26,,,,,,,,,,,,,,,,,Sacramento Kings,,,,,,,,,,,,,,,,,,,,Los Angeles Lakers,,,,,1497.9102461251282,1581.6307699022973,1,0,,,,,0,,,0,,,0,,,0,,,0,,,0,0.5991048788071673,-0.05370736122131348,226.79566955566406,1.0,0.07892647191966357,115.50012961482204,0.0,-0.13263383314097704,111.29553994084199,0.0,-0.06493795176633191,57.06431698354373,1.0,0.14386442368599547,58.43581263127831,0.0,-0.18170673825954242,56.04640925074748,0.0,0.04907290511856539,55.24913069009452
2025-10-26,,,,,,,,,,,,,,,,,Washington Wizards,,,,,,,,,,,,,,,,,,,,Charlotte Hornets,,,,,1151.8858787418574,1127.6843862010323,1,0,,,,,0,,,0,,,0,,,0,,,0,,,0,0.6259176545543449,1.5572409629821777,221.0770721435547,1.0,1.2282576847864932,111.48287396965728,0.0,0.3289832781956845,109.59419817389745,1.0,0.5314872269202421,55.38116206889509,1.0,0.6967704578662511,56.10171190076218,0.0,0.010016598750513086,55.00014011046532,0.0,0.31896667944517143,54.594058063432136
2025-10-26,,,,,,,,,,,,,,,,,Cleveland Cavaliers,,,,,,,,,,,,,,,,,,,,Milwaukee Bucks,,,,,1693.6615563736723,1704.6191810793111,1,0,,,,,0,,,0,,,0,,,0,,,0,,,0,0.6258752000319113,1.554682970046997,233.429443359375,1.0,1.6619607409239476,118.49772605398493,1.0,-0.10727777087695078,114.93171730539007,1.0,0.3387983363926,59.62141791241577,1.0,1.3231624045313477,58.87630814156916,0.0,-0.6037288439331292,58.440183219737676,0.0,0.4964510730561784,56.49153408565238
2025-10-26,,,,,,,,,,,,,,,,,Detroit Pistons,,,,,,,,,,,,,,,,,,,,Boston Celtics,,,,,1548.5405304583608,1729.0894090837962,1,0,,,,,0,,,0,,,0,,,0,,,0,,,0,0.360922634898462,-2.3521440029144287,224.8985595703125,0.0,-0.9558548009729638,113.15526870839379,0.0,-1.3962892019414648,111.74329086191872,0.0,-1.1460698843487787,56.76605648530291,0.0,0.19021508337581483,56.38921222309088,0.0,-1.1538861488086636,56.507216637994155,0.0,-0.24240305313280114,55.23607422392456
2025-10-26,,,,,,,,,,,,,,,,,Los Angeles Clippers,,,,,,,,,,,,,,,,,,,,Portland Trail Blazers,,,,,1809.8047447381302,1538.5027821186084,1,0,,,,,0,,,0,,,0,,,0,,,0,,,0,0.7398325017508067,8.759199142456055,228.01800537109375,1.0,5.441988193822404,114.92320936117765,1.0,3.317210948633652,113.09479600991605,1.0,2.537248148875216,57.32765874350096,1.0,2.9047400449471876,57.59555061767669,1.0,1.8153540975423388,57.501760098912065,1.0,1.5018568510913128,55.593035911003994
2025-10-26,,,,,,,,,,,,,,,,,San Antonio Spurs,,,,,,,,,,,,,,,,,,,,Brooklyn Nets,,,,,1372.426501371599,1232.3041632733696,1,0,,,,,0,,,0,,,0,,,0,,,0,,,0,0.6809222193188696,4.923247814178467,227.75369262695312,1.0,3.1301396519471707,114.2859188418793,1.0,1.793108162231296,113.46777378507382,1.0,1.4856535955518966,56.75116930153467,1.0,1.6444860563952743,57.53474954034462,1.0,0.8963901970247992,57.58162317818385,1.0,0.8967179652064968,55.88615060688997
2025-10-26,,,,,,,,,,,,,,,,,Minnesota Timberwolves,,,,,,,,,,,,,,,,,,,,Indiana Pacers,,,,,1706.5427395475638,1677.5706123838518,1,0,,,,,0,,,0,,,0,,,0,,,0,,,0,0.647196950957146,2.845069646835327,228.93031311035156,1.0,1.9650566178090245,115.7826159956212,1.0,0.8800130290263027,113.14769711473035,1.0,0.7439636905257959,57.6222347196081,1.0,1.2210929272832285,58.1603812760131,0.0,0.1625815147509991,57.20478361521813,0.0,0.7174315142753036,55.942913499512215
