mostgood1/WNBA-Betting/data/processed/games_predictions_npu_2026-01-30.csv
date,game_id,home_ot1,home_ot10,home_ot2,home_ot3,home_ot4,home_ot5,home_ot6,home_ot7,home_ot8,home_ot9,home_pts,home_q1,home_q2,home_q3,home_q4,home_team,home_win,margin,season,total_points,visitor_ot1,visitor_ot10,visitor_ot2,visitor_ot3,visitor_ot4,visitor_ot5,visitor_ot6,visitor_ot7,visitor_ot8,visitor_ot9,visitor_pts,visitor_q1,visitor_q2,visitor_q3,visitor_q4,visitor_team,home_h1,home_h2,visitor_h1,visitor_h2,home_elo,visitor_elo,is_home,target_home_win,target_margin,target_total,target_h1_margin,target_h1_total,target_h1_home_win,target_h2_margin,target_h2_total,target_h2_home_win,target_q1_margin,target_q1_total,target_q1_home_win,target_q2_margin,target_q2_total,target_q2_home_win,target_q3_margin,target_q3_total,target_q3_home_win,target_q4_margin,target_q4_total,target_q4_home_win,win_prob,spread_margin,totals,halves_h1_win,halves_h1_margin,halves_h1_total,halves_h2_win,halves_h2_margin,halves_h2_total,quarters_q1_win,quarters_q1_margin,quarters_q1_total,quarters_q2_win,quarters_q2_margin,quarters_q2_total,quarters_q3_win,quarters_q3_margin,quarters_q3_total,quarters_q4_win,quarters_q4_margin,quarters_q4_total
2026-01-30,,,,,,,,,,,,,,,,,Washington Wizards,,,,,,,,,,,,,,,,,,,,Los Angeles Lakers,,,,,1151.8858787418574,1581.6307699022973,1,0,,,,,0,,,0,,,0,,,0,,,0,,,0,0.30066888047424895,-9.298742294311523,222.09500122070312,0.3583641052246094,-4.248138382605887,112.94840841109234,0.30159565806388855,-5.050603911705636,109.14659280961078,0.34006941318511963,-2.982334853026807,55.87795867130068,0.39509350061416626,-1.2658035295790802,57.07044973979166,0.29914194345474243,-3.4743234849098226,54.61716235548066,0.35245609283447266,-1.5762804267958135,54.52943045413013
2026-01-30,,,,,,,,,,,,,,,,,Golden State Warriors,,,,,,,,,,,,,,,,,,,,Detroit Pistons,,,,,1640.370824901381,1548.5405304583608,1,0,,,,,0,,,0,,,0,,,0,,,0,,,0,0.5934979669368825,3.945054292678833,226.1793975830078,0.6384583115577698,3.245866208713098,114.07380034137606,0.5078755617141724,0.6991880839657353,112.10559724163171,0.5345379710197449,1.3348396021883309,57.02279775594086,0.5592131018638611,1.9110266065247667,57.0510025854352,0.4854961633682251,0.1686711032013055,57.133707550432774,0.4701284170150757,0.5305169807644298,54.97188969119894
2026-01-30,,,,,,,,,,,,,,,,,New Orleans Pelicans,,,,,,,,,,,,,,,,,,,,Memphis Grizzlies,,,,,1225.8323959161714,1489.9859410623828,1,0,,,,,0,,,0,,,0,,,0,,,0,,,0,0.3835365418076699,-5.340570449829102,229.46815490722656,0.44461047649383545,-1.8870334785491008,115.9962727744263,0.35960954427719116,-3.453536971280001,113.47188213280027,0.40999549627304077,-1.7566821898183058,57.970766463262535,0.45420408248901367,-0.13035128873079493,58.02550631116377,0.33786410093307495,-2.4499820562781136,57.345122408215076,0.38434821367263794,-1.0035549150018872,56.1267597245852
2026-01-30,,,,,,,,,,,,,,,,,Boston Celtics,,,,,,,,,,,,,,,,,,,,Sacramento Kings,,,,,1729.0894090837962,1497.9102461251282,1,0,,,,,0,,,0,,,0,,,0,,,0,,,0,0.6683392545551152,7.3302717208862305,218.9999542236328,0.7112128138542175,5.4982683538033275,110.44712097900285,0.555725634098053,1.8320033670829035,108.55283324462997,0.5924694538116455,2.3988489599323803,55.09771152976063,0.6159256100654602,3.0994193938709467,55.34940944924222,0.5184244513511658,0.8595111155311854,54.87429611352203,0.5024205446243286,0.9724922515517179,53.678537131107944
2026-01-30,,,,,,,,,,,,,,,,,Phoenix Suns,,,,,,,,,,,,,,,,,,,,Cleveland Cavaliers,,,,,1407.9217763424385,1693.6615563736723,1,0,,,,,0,,,0,,,0,,,0,,,0,,,0,0.3750065040334504,-5.651611328125,224.70407104492188,0.43325281143188477,-2.2516125305137855,113.12469636203465,0.3545386791229248,-3.3999987976112145,111.57937468288723,0.39202880859375,-1.7864632637919073,56.58850028213938,0.4367758631706238,-0.46514926672187795,56.53619607989528,0.34675708413124084,-2.4148962688568494,56.46910025450255,0.3839871287345886,-0.9851025287543652,55.110274428384685
2026-01-30,,,,,,,,,,,,,,,,,Utah Jazz,,,,,,,,,,,,,,,,,,,,Brooklyn Nets,,,,,1223.8102860635088,1232.3041632733696,1,0,,,,,0,,,0,,,0,,,0,,,0,,,0,0.5299798911519321,1.1547834873199463,232.74148559570312,0.5682950019836426,1.4150385004759807,116.56079732630575,0.4778963327407837,-0.2602550131560343,116.1806882693974,0.5002160668373108,0.18982339303267573,58.0612603169349,0.5339455604553223,1.2252151074433049,58.49953700937085,0.461317777633667,-0.17208456486174956,58.60208383878685,0.422258198261261,-0.08817044829428469,57.57860443061054
2026-01-30,,,,,,,,,,,,,,,,,New York Knicks,,,,,,,,,,,,,,,,,,,,Portland Trail Blazers,,,,,1527.0879410236441,1538.5027821186084,1,0,,,,,0,,,0,,,0,,,0,,,0,,,0,0.5379256284085933,1.3956153392791748,221.07400512695312,0.5872628092765808,2.0810491965138844,111.97516108445646,0.4721669852733612,-0.6854338572347096,109.09884404249664,0.4973488450050354,0.35457370581649683,55.81851406844509,0.5392668843269348,1.7264754906973876,56.15664701601137,0.44897812604904175,-0.6938018827242797,55.369866121451516,0.44105181097984314,0.008368025489570085,53.72897792104513
2026-01-30,,,,,,,,,,,,,,,,,Denver Nuggets,,,,,,,,,,,,,,,,,,,,Los Angeles Clippers,,,,,1610.9867508691182,1809.8047447381302,1,0,,,,,0,,,0,,,0,,,0,,,0,,,0,0.43841027744848504,-2.893937826156616,230.40538024902344,0.49848297238349915,-0.7909634176325988,117.15760396690396,0.41553136706352234,-2.1029744085240174,113.24777628211947,0.42989155650138855,-1.0592071541105361,58.340647451244365,0.4803915321826935,0.26824373647793726,58.81695651565959,0.388419508934021,-1.6020993897773381,57.598064972606984,0.4099392890930176,-0.5008750187466794,55.64971130951248
2026-01-30,,,,,,,,,,,,,,,,,Orlando Magic,,,,,,,,,,,,,,,,,,,,Toronto Raptors,,,,,1613.2989140138604,1296.4917174840082,1,0,,,,,0,,,0,,,0,,,0,,,0,,,0,0.7052427961136906,9.238326072692871,222.8895263671875,0.7437855005264282,6.570705122391561,112.19445808852075,0.58405601978302,2.667620950301311,110.69506827866677,0.6250322461128235,3.0059810778031304,55.88900117897229,0.6457669734954834,3.5647240445884307,56.30545690954846,0.5447629690170288,1.4405347720761534,55.76114870507304,0.5138720870018005,1.2270861782251572,54.93391957359373
