mostgood1/WNBA-Betting/data/processed/games_predictions_npu_2025-11-10.csv
date,game_id,home_ot1,home_ot10,home_ot2,home_ot3,home_ot4,home_ot5,home_ot6,home_ot7,home_ot8,home_ot9,home_pts,home_q1,home_q2,home_q3,home_q4,home_team,home_win,margin,season,total_points,visitor_ot1,visitor_ot10,visitor_ot2,visitor_ot3,visitor_ot4,visitor_ot5,visitor_ot6,visitor_ot7,visitor_ot8,visitor_ot9,visitor_pts,visitor_q1,visitor_q2,visitor_q3,visitor_q4,visitor_team,home_h1,home_h2,visitor_h1,visitor_h2,home_elo,visitor_elo,is_home,target_home_win,target_margin,target_total,target_h1_margin,target_h1_total,target_h1_home_win,target_h2_margin,target_h2_total,target_h2_home_win,target_q1_margin,target_q1_total,target_q1_home_win,target_q2_margin,target_q2_total,target_q2_home_win,target_q3_margin,target_q3_total,target_q3_home_win,target_q4_margin,target_q4_total,target_q4_home_win,win_prob,spread_margin,totals,halves_h1_win,halves_h1_margin,halves_h1_total,halves_h2_win,halves_h2_margin,halves_h2_total,quarters_q1_win,quarters_q1_margin,quarters_q1_total,quarters_q2_win,quarters_q2_margin,quarters_q2_total,quarters_q3_win,quarters_q3_margin,quarters_q3_total,quarters_q4_win,quarters_q4_margin,quarters_q4_total
2025-11-10,,,,,,,,,,,,,,,,,Miami Heat,,,,,,,,,,,,,,,,,,,,Cleveland Cavaliers,,,,,1526.1290915477284,1693.6615563736723,1,0,,,,,0,,,0,,,0,,,0,,,0,,,0,0.37225600003040576,-1.6673171520233154,231.3813934326172,0.0,-0.8406484051016433,117.97624314862153,0.0,-0.826668746921672,113.40515028399565,0.0,-0.7757804979584456,59.26742317061718,0.0,-0.06486790714319768,58.70881997800436,0.0,-0.8268983492644825,57.30456331580007,0.0,0.00022960234281039344,56.10058696819559
2025-11-10,,,,,,,,,,,,,,,,,Phoenix Suns,,,,,,,,,,,,,,,,,,,,New Orleans Pelicans,,,,,1407.9217763424385,1225.8323959161714,1,0,,,,,0,,,0,,,0,,,0,,,0,,,0,0.6889693812224387,5.4289021492004395,226.3353271484375,1.0,3.6757807268896707,113.656248252895,1.0,1.7531214223107683,112.6790788955425,1.0,1.8581895714111976,56.76135901217908,1.0,1.8175911554784734,56.89488924071592,1.0,0.8605184835795928,57.0007941707298,1.0,0.8926029387311754,55.678284724812706
2025-11-10,,,,,,,,,,,,,,,,,Orlando Magic,,,,,,,,,,,,,,,,,,,,Portland Trail Blazers,,,,,1613.2989140138604,1538.5027821186084,1,0,,,,,0,,,0,,,0,,,0,,,0,,,0,0.6620896948322468,3.755742311477661,221.50633239746094,1.0,2.7503398862623314,111.42014226471002,1.0,1.0054024252153302,110.08619013275094,1.0,1.0653051009450598,55.78168006833129,1.0,1.6850347853172714,55.63846219637874,0.0,0.2864842023631004,55.89381248587706,0.0,0.7189182228522297,54.19237764687388
2025-11-10,,,,,,,,,,,,,,,,,Utah Jazz,,,,,,,,,,,,,,,,,,,,Minnesota Timberwolves,,,,,1223.8102860635088,1706.5427395475638,1,0,,,,,0,,,0,,,0,,,0,,,0,,,0,0.24362566484018397,-9.909701347351074,235.05056762695312,0.0,-5.328245103051217,117.8942281560953,0.0,-4.581456244299856,117.15633947085783,0.0,-3.5284280541870707,58.99720576410539,0.0,-1.7998170488641467,58.89702239198991,0.0,-3.2113706692569073,59.02852618170682,0.0,-1.370085575042949,58.12781328915101
2025-11-10,,,,,,,,,,,,,,,,,Chicago Bulls,,,,,,,,,,,,,,,,,,,,San Antonio Spurs,,,,,1633.1478293875864,1372.426501371599,1,0,,,,,0,,,0,,,0,,,0,,,0,,,0,0.7335293589319816,8.331000328063965,229.62693786621094,1.0,5.19054251107113,114.75211201000712,1.0,3.1404578169928343,114.8748258562038,1.0,2.529625630496263,57.032626719451535,1.0,2.660916880574867,57.71948529055558,1.0,1.7130319147376312,58.09945611536266,1.0,1.4274259022552032,56.775369740841136
2025-11-10,,,,,,,,,,,,,,,,,Charlotte Hornets,,,,,,,,,,,,,,,,,,,,Los Angeles Lakers,,,,,1127.6843862010323,1581.6307699022973,1,0,,,,,0,,,0,,,0,,,0,,,0,,,0,0.24296038042574467,-9.956855773925781,224.38487243652344,0.0,-4.948096002746086,113.58997518126222,0.0,-5.008759771179696,110.79489725526119,0.0,-3.2511426877829956,56.10913963546788,0.0,-1.6969533149630904,57.48083554579434,0.0,-3.5710951363584824,55.76505829457563,0.0,-1.4376646348212132,55.02983896068556
2025-11-10,,,,,,,,,,,,,,,,,Los Angeles Clippers,,,,,,,,,,,,,,,,,,,,Atlanta Hawks,,,,,1809.8047447381302,1522.3022112738163,1,0,,,,,0,,,0,,,0,,,0,,,0,,,0,0.742004454747194,8.90798282623291,235.19430541992188,1.0,6.032731907300577,118.40367113489674,1.0,2.8752509189323328,116.79063428502512,1.0,2.7298724775227283,58.79227773847427,1.0,3.3028594297778486,59.61139339642248,1.0,1.3595225744641914,59.25649506604439,1.0,1.5157283444681413,57.534139218980734
2025-11-10,,,,,,,,,,,,,,,,,Dallas Mavericks,,,,,,,,,,,,,,,,,,,,Milwaukee Bucks,,,,,1345.1752215638398,1704.6191810793111,1,0,,,,,0,,,0,,,0,,,0,,,0,,,0,0.2780213265269166,-7.559146881103516,229.5135498046875,0.0,-3.4571684418471573,116.40833228616603,0.0,-4.101978439256358,113.10521751852144,0.0,-2.4346971531837633,58.16545981025394,0.0,-1.022471288663394,58.242872475912094,0.0,-3.0778342421884752,57.27895241535797,0.0,-1.0241441970678833,55.82626510316348
2025-11-10,,,,,,,,,,,,,,,,,Detroit Pistons,,,,,,,,,,,,,,,,,,,,Washington Wizards,,,,,1548.5405304583608,1151.8858787418574,1,0,,,,,0,,,0,,,0,,,0,,,0,,,0,0.7729648467265262,11.108633995056152,227.45785522460938,1.0,6.728497439780472,115.16534346953742,1.0,4.380136555275681,112.29251175507194,1.0,3.4148008184921945,57.44496581579893,1.0,3.313696621288278,57.72037765373848,1.0,2.677502541274928,56.283889272187466,1.0,1.7026340140007528,56.008622482884476
