mostgood1/WNBA-Betting/data/processed/games_predictions_npu_2026-01-19.csv
date,game_id,home_ot1,home_ot10,home_ot2,home_ot3,home_ot4,home_ot5,home_ot6,home_ot7,home_ot8,home_ot9,home_pts,home_q1,home_q2,home_q3,home_q4,home_team,home_win,margin,season,total_points,visitor_ot1,visitor_ot10,visitor_ot2,visitor_ot3,visitor_ot4,visitor_ot5,visitor_ot6,visitor_ot7,visitor_ot8,visitor_ot9,visitor_pts,visitor_q1,visitor_q2,visitor_q3,visitor_q4,visitor_team,home_h1,home_h2,visitor_h1,visitor_h2,home_elo,visitor_elo,is_home,target_home_win,target_margin,target_total,target_h1_margin,target_h1_total,target_h1_home_win,target_h2_margin,target_h2_total,target_h2_home_win,target_q1_margin,target_q1_total,target_q1_home_win,target_q2_margin,target_q2_total,target_q2_home_win,target_q3_margin,target_q3_total,target_q3_home_win,target_q4_margin,target_q4_total,target_q4_home_win,win_prob,spread_margin,totals,halves_h1_win,halves_h1_margin,halves_h1_total,halves_h2_win,halves_h2_margin,halves_h2_total,quarters_q1_win,quarters_q1_margin,quarters_q1_total,quarters_q2_win,quarters_q2_margin,quarters_q2_total,quarters_q3_win,quarters_q3_margin,quarters_q3_total,quarters_q4_win,quarters_q4_margin,quarters_q4_total
2026-01-19,,,,,,,,,,,,,,,,,Washington Wizards,,,,,,,,,,,,,,,,,,,,Los Angeles Clippers,,,,,1151.8858787418574,1809.8047447381302,1,0,,,,,0,,,0,,,0,,,0,,,0,,,0,0.20823186524376633,-14.698481559753418,224.95620727539062,0.25699102878570557,-7.403020704743858,113.60648993720133,0.23883381485939026,-7.295460855009561,111.34971733818927,0.26524969935417175,-4.720118339856822,56.382603622908725,0.32061731815338135,-2.682902364887035,57.22388631429261,0.24010252952575684,-5.005630926476699,55.91669982263843,0.31923791766166687,-2.2898299285328623,55.433017515550844
2026-01-19,,,,,,,,,,,,,,,,,Cleveland Cavaliers,,,,,,,,,,,,,,,,,,,,Oklahoma City Thunder,,,,,1693.6615563736723,1831.1771861350628,1,0,,,,,0,,,0,,,0,,,0,,,0,,,0,0.4702975281903532,-1.4906094074249268,231.1262664794922,0.5260924100875854,-0.05609514690379158,117.39557938768381,0.4360618591308594,-1.4345142605211352,113.73068709180836,0.45419877767562866,-0.5644701613671157,58.68414329649374,0.4958614110946655,0.5083750144633241,58.71143609119007,0.4042918086051941,-1.1822935295961077,57.70156308643351,0.4277908205986023,-0.25222073092502756,56.02912400537485
2026-01-19,,,,,,,,,,,,,,,,,Philadelphia 76ers,,,,,,,,,,,,,,,,,,,,Indiana Pacers,,,,,1151.8218820862296,1677.5706123838518,1,0,,,,,0,,,0,,,0,,,0,,,0,,,0,0.2686767774442598,-10.93173885345459,226.219482421875,0.314237117767334,-5.751530436289201,114.62717115195193,0.30201101303100586,-5.180208417165389,111.59231126992304,0.3013070225715637,-3.602492324458961,57.13970878876094,0.3549138903617859,-2.14903811183024,57.48746236319098,0.3068355321884155,-3.5344519013452063,56.36801435225593,0.34408366680145264,-1.6457565158201823,55.224296917667104
2026-01-19,,,,,,,,,,,,,,,,,Detroit Pistons,,,,,,,,,,,,,,,,,,,,Boston Celtics,,,,,1548.5405304583608,1729.0894090837962,1,0,,,,,0,,,0,,,0,,,0,,,0,,,0,0.45125169270954496,-2.4452884197235107,223.1911163330078,0.501235842704773,-0.6448976833794017,112.2852669374179,0.4355766773223877,-1.800390736344109,110.90584939558991,0.4381488859653473,-1.0969648307381104,56.27939186931498,0.5016617178916931,0.4520671473587087,56.005875068102924,0.40451061725616455,-1.2782925946309223,56.009849742651745,0.404460072517395,-0.5220981417131866,54.89599965293817
2026-01-19,,,,,,,,,,,,,,,,,Golden State Warriors,,,,,,,,,,,,,,,,,,,,Miami Heat,,,,,1640.370824901381,1526.1290915477284,1,0,,,,,0,,,0,,,0,,,0,,,0,,,0,0.6072332934914582,4.450626373291016,226.6092987060547,0.6565791368484497,3.898675875637611,115.02307882478848,0.51552414894104,0.5519504976534046,111.58621988126616,0.5529533624649048,1.4421441081776358,57.67685921834864,0.5789434313774109,2.456531767459975,57.346219606439846,0.47212883830070496,-0.04832950486883685,56.959674252622875,0.4838092029094696,0.6002800025222415,54.626545628643285
2026-01-19,,,,,,,,,,,,,,,,,Brooklyn Nets,,,,,,,,,,,,,,,,,,,,Phoenix Suns,,,,,1232.3041632733696,1407.9217763424385,1,0,,,,,0,,,0,,,0,,,0,,,0,,,0,0.43523985535532933,-2.897660970687866,222.36373901367188,0.4764673709869385,-1.101735857455854,111.54488153366617,0.40854817628860474,-1.7959251132320122,110.81885748000569,0.42693662643432617,-0.9816823740913493,55.49520580562893,0.46946051716804504,-0.12005348336450473,56.04967572803724,0.40743571519851685,-1.2304770967824394,56.215146678817284,0.3991403579711914,-0.5654480164495727,54.603710801188406
2026-01-19,,,,,,,,,,,,,,,,,San Antonio Spurs,,,,,,,,,,,,,,,,,,,,Utah Jazz,,,,,1372.426501371599,1223.8102860635088,1,0,,,,,0,,,0,,,0,,,0,,,0,,,0,0.6104332795503377,4.826130390167236,234.3341522216797,0.6475082635879517,3.6309648612717904,116.59276241993213,0.5148651599884033,1.195165528895446,117.74138980174759,0.5577953457832336,1.7304092571040302,58.06995905808941,0.5622491240501404,1.9005556041677603,58.52280336184272,0.4952724277973175,0.524420419482402,59.49900390207445,0.4769529402256012,0.6707451094130438,58.24238589967314
2026-01-19,,,,,,,,,,,,,,,,,Atlanta Hawks,,,,,,,,,,,,,,,,,,,,Milwaukee Bucks,,,,,1522.3022112738163,1704.6191810793111,1,0,,,,,0,,,0,,,0,,,0,,,0,,,0,0.4575788272583336,-2.012240171432495,234.18106079101562,0.5097030997276306,-0.6076027256694109,118.1556041613694,0.4475210905075073,-1.4046374457630844,116.02545662964619,0.434032142162323,-0.8468510702996209,59.15463417828861,0.48104751110076904,0.23924834463021002,59.000969983080786,0.41788971424102783,-1.145377817010531,59.16495489371489,0.42187708616256714,-0.25925962875255315,56.860501735931294
2026-01-19,,,,,,,,,,,,,,,,,New York Knicks,,,,,,,,,,,,,,,,,,,,Dallas Mavericks,,,,,1527.0879410236441,1345.1752215638398,1,0,,,,,0,,,0,,,0,,,0,,,0,,,0,0.6369068338029684,5.962320327758789,221.03012084960938,0.6662222146987915,4.076064138081406,112.29137854597458,0.5447197556495667,1.8862561896773822,108.73874230363481,0.5633965730667114,1.9230005730533346,55.605077865026,0.587821364402771,2.153063565028072,56.686300680948584,0.5312073826789856,1.1089855788657954,54.77739700244307,0.4776715636253357,0.7772706108115867,53.96134530119174
