mostgood1/WNBA-Betting/data/processed/games_predictions_npu_2025-12-01.csv
date,game_id,home_ot1,home_ot10,home_ot2,home_ot3,home_ot4,home_ot5,home_ot6,home_ot7,home_ot8,home_ot9,home_pts,home_q1,home_q2,home_q3,home_q4,home_team,home_win,margin,season,total_points,visitor_ot1,visitor_ot10,visitor_ot2,visitor_ot3,visitor_ot4,visitor_ot5,visitor_ot6,visitor_ot7,visitor_ot8,visitor_ot9,visitor_pts,visitor_q1,visitor_q2,visitor_q3,visitor_q4,visitor_team,home_h1,home_h2,visitor_h1,visitor_h2,home_elo,visitor_elo,is_home,target_home_win,target_margin,target_total,target_h1_margin,target_h1_total,target_h1_home_win,target_h2_margin,target_h2_total,target_h2_home_win,target_q1_margin,target_q1_total,target_q1_home_win,target_q2_margin,target_q2_total,target_q2_home_win,target_q3_margin,target_q3_total,target_q3_home_win,target_q4_margin,target_q4_total,target_q4_home_win,win_prob,spread_margin,totals,halves_h1_win,halves_h1_margin,halves_h1_total,halves_h2_win,halves_h2_margin,halves_h2_total,quarters_q1_win,quarters_q1_margin,quarters_q1_total,quarters_q2_win,quarters_q2_margin,quarters_q2_total,quarters_q3_win,quarters_q3_margin,quarters_q3_total,quarters_q4_win,quarters_q4_margin,quarters_q4_total
2025-12-01,,,,,,,,,,,,,,,,,Denver Nuggets,,,,,,,,,,,,,,,,,,,,Dallas Mavericks,,,,,1610.9867508691182,1345.1752215638398,1,0,,,,,0,,,0,,,0,,,0,,,0,,,0,0.7319074536640828,8.221647262573242,226.65834045410156,1.0,5.006242279994785,115.70826999804973,1.0,3.215404982578458,110.95007045605183,1.0,2.5062045221788227,57.64621461653009,1.0,2.5000377578159627,58.06205538151964,1.0,1.9318192867699806,56.23538041628087,1.0,1.2835856958084773,54.714690039770964
2025-12-01,,,,,,,,,,,,,,,,,Indiana Pacers,,,,,,,,,,,,,,,,,,,,Cleveland Cavaliers,,,,,1677.5706123838518,1693.6615563736723,1,0,,,,,0,,,0,,,0,,,0,,,0,,,0,0.6238383275474871,1.4319965839385986,230.0746307373047,1.0,1.5396621972106177,116.59445197994101,0.0,-0.10766561327201901,113.48017875736366,0.0,0.3030971465551169,58.118748400277674,1.0,1.2365650506555008,58.47570357966334,0.0,-0.43197121276061234,57.3150866693784,0.0,0.32430559948859333,56.16509208798526
2025-12-01,,,,,,,,,,,,,,,,,Los Angeles Lakers,,,,,,,,,,,,,,,,,,,,Phoenix Suns,,,,,1581.6307699022973,1407.9217763424385,1,0,,,,,0,,,0,,,0,,,0,,,0,,,0,0.6998230744808449,6.118585586547852,223.62734985351562,1.0,3.842592489293593,112.79646339973229,1.0,2.275993097254259,110.83088645378334,1.0,1.8263961638491435,55.91633130859315,1.0,2.0161963254444495,56.88013209113914,1.0,1.2805023612404849,56.114977412927004,0.0,0.9954907360137742,54.71590904085634
2025-12-01,,,,,,,,,,,,,,,,,Washington Wizards,,,,,,,,,,,,,,,,,,,,Milwaukee Bucks,,,,,1151.8858787418574,1704.6191810793111,1,0,,,,,0,,,0,,,0,,,0,,,0,,,0,0.21243478707637792,-12.208226203918457,227.36264038085938,0.0,-6.131442427636939,115.19016867307275,0.0,-6.076783776281518,112.17247170778664,0.0,-3.9064944361620104,57.69580128347576,0.0,-2.224947991474928,57.49436738959699,0.0,-4.31507560446823,56.677222688822106,0.0,-1.7617081718132879,55.495249018964536
2025-12-01,,,,,,,,,,,,,,,,,Detroit Pistons,,,,,,,,,,,,,,,,,,,,Atlanta Hawks,,,,,1548.5405304583608,1522.3022112738163,1,0,,,,,0,,,0,,,0,,,0,,,0,,,0,0.6357481644393631,2.150627851486206,235.82159423828125,1.0,2.415830661380905,118.97180150511547,0.0,-0.26520280989469885,116.84979273316578,1.0,0.5772050409119193,59.3141342855707,1.0,1.8386256204689857,59.65766721954476,0.0,-0.6504608441815694,59.029361889953115,0.0,0.3852580342868705,57.82043084321267
2025-12-01,,,,,,,,,,,,,,,,,Brooklyn Nets,,,,,,,,,,,,,,,,,,,,Charlotte Hornets,,,,,1232.3041632733696,1127.6843862010323,1,0,,,,,0,,,0,,,0,,,0,,,0,,,0,0.661777640364799,3.7365591526031494,223.17141723632812,1.0,2.511676252492215,112.34277639185675,1.0,1.224882900110934,110.82864084447141,1.0,1.1793297636182276,55.70820190490341,1.0,1.3323464888739875,56.634574486953326,1.0,0.6793806469457366,56.006489424292646,0.0,0.5455022531651974,54.82215142017877
2025-12-01,,,,,,,,,,,,,,,,,Utah Jazz,,,,,,,,,,,,,,,,,,,,Houston Rockets,,,,,1223.8102860635088,1582.2865289306442,1,0,,,,,0,,,0,,,0,,,0,,,0,,,0,0.2860824831986793,-7.029391288757324,236.34112548828125,0.0,-3.888617341388475,118.42166010495937,0.0,-3.1407739473688503,117.91946538332192,0.0,-2.4657260916338672,59.43798435785536,0.0,-1.4228912497546073,58.98367574710401,0.0,-2.168730988521085,59.66838456548948,0.0,-0.972042958847765,58.251080817832445
2025-12-01,,,,,,,,,,,,,,,,,Miami Heat,,,,,,,,,,,,,,,,,,,,Los Angeles Clippers,,,,,1526.1290915477284,1809.8047447381302,1,0,,,,,0,,,0,,,0,,,0,,,0,,,0,0.3264370461449459,-4.464572906494141,232.10240173339844,0.0,-2.1882765214525155,117.78142607123777,0.0,-2.2762963850416256,114.32097566216063,0.0,-1.6882733276351685,58.77029626638314,0.0,-0.5000031938173469,59.01112980485464,0.0,-1.8051992383637054,57.83242934239647,0.0,-0.47109714667792,56.48854631976417
2025-12-01,,,,,,,,,,,,,,,,,Orlando Magic,,,,,,,,,,,,,,,,,,,,Chicago Bulls,,,,,1613.2989140138604,1633.1478293875864,1,0,,,,,0,,,0,,,0,,,0,,,0,,,0,0.6230958341194716,1.3872931003570557,225.0828094482422,1.0,1.87788381803575,112.84762193734888,0.0,-0.49059071767869417,112.23518751089333,0.0,0.35515346784578405,56.225511563285274,1.0,1.5227303501899658,56.6221103740636,0.0,-0.8444543818365643,56.587171850606744,0.0,0.35386366415787013,55.64801566028658
