mostgood1/WNBA-Betting/data/processed/games_predictions_npu_2025-12-27.csv
date,game_id,home_ot1,home_ot10,home_ot2,home_ot3,home_ot4,home_ot5,home_ot6,home_ot7,home_ot8,home_ot9,home_pts,home_q1,home_q2,home_q3,home_q4,home_team,home_win,margin,season,total_points,visitor_ot1,visitor_ot10,visitor_ot2,visitor_ot3,visitor_ot4,visitor_ot5,visitor_ot6,visitor_ot7,visitor_ot8,visitor_ot9,visitor_pts,visitor_q1,visitor_q2,visitor_q3,visitor_q4,visitor_team,home_h1,home_h2,visitor_h1,visitor_h2,home_elo,visitor_elo,is_home,target_home_win,target_margin,target_total,target_h1_margin,target_h1_total,target_h1_home_win,target_h2_margin,target_h2_total,target_h2_home_win,target_q1_margin,target_q1_total,target_q1_home_win,target_q2_margin,target_q2_total,target_q2_home_win,target_q3_margin,target_q3_total,target_q3_home_win,target_q4_margin,target_q4_total,target_q4_home_win,win_prob,spread_margin,totals,halves_h1_win,halves_h1_margin,halves_h1_total,halves_h2_win,halves_h2_margin,halves_h2_total,quarters_q1_win,quarters_q1_margin,quarters_q1_total,quarters_q2_win,quarters_q2_margin,quarters_q2_total,quarters_q3_win,quarters_q3_margin,quarters_q3_total,quarters_q4_win,quarters_q4_margin,quarters_q4_total
2025-12-27,,,,,,,,,,,,,,,,,Atlanta Hawks,,,,,,,,,,,,,,,,,,,,New York Knicks,,,,,1522.3022112738163,1527.0879410236441,1,0,,,,,0,,,0,,,0,,,0,,,0,,,0,0.6387239580408817,2.3307371139526367,228.29005432128906,1.0,1.6667719516318469,115.4335095314433,1.0,0.66396516232079,112.85654478984576,0.0,0.40286587006303465,57.33439069548754,1.0,1.2639060815688123,58.099118835955764,0.0,0.2620936110666218,57.264307438371006,0.0,0.4018715512541681,55.59223735147475
2025-12-27,,,,,,,,,,,,,,,,,New Orleans Pelicans,,,,,,,,,,,,,,,,,,,,Phoenix Suns,,,,,1225.8323959161714,1407.9217763424385,1,0,,,,,0,,,0,,,0,,,0,,,0,,,0,0.3465447402036297,-3.226616144180298,225.3233642578125,0.0,-1.331851000163488,113.12422177899373,0.0,-1.8947651440168098,112.19914247881877,0.0,-1.1245974037369908,56.48494043337935,0.0,-0.20725359642649724,56.63928134561437,0.0,-1.3085102459544076,56.69765107275376,0.0,-0.5862548980624023,55.50149140606501
2025-12-27,,,,,,,,,,,,,,,,,Minnesota Timberwolves,,,,,,,,,,,,,,,,,,,,Brooklyn Nets,,,,,1706.5427395475638,1232.3041632733696,1,0,,,,,0,,,0,,,0,,,0,,,0,,,0,0.8011372640182224,13.27450180053711,225.719970703125,1.0,8.290656202593889,114.17568070162875,1.0,4.983845597943221,111.54429000149622,1.0,4.221258088281844,56.86065785794352,1.0,4.069398114312045,57.31502284368523,1.0,3.0167338213420876,56.40911056939448,1.0,1.9671117766011332,55.13517943210175
2025-12-27,,,,,,,,,,,,,,,,,Orlando Magic,,,,,,,,,,,,,,,,,,,,Denver Nuggets,,,,,1613.2989140138604,1610.9867508691182,1,0,,,,,0,,,0,,,0,,,0,,,0,,,0,0.6314246405518755,1.8893718719482422,224.82423400878906,1.0,2.043307746943388,114.11399726413052,0.0,-0.15393587499514583,110.71023674465857,1.0,0.5910287818675569,57.0545601713413,1.0,1.452278965075831,57.059437092789224,0.0,-0.4916910015117487,56.2930086053863,0.0,0.3377551265166029,54.41722813927227
2025-12-27,,,,,,,,,,,,,,,,,Sacramento Kings,,,,,,,,,,,,,,,,,,,,Dallas Mavericks,,,,,1497.9102461251282,1345.1752215638398,1,0,,,,,0,,,0,,,0,,,0,,,0,,,0,0.6903543342262106,5.516395568847656,223.23817443847656,1.0,3.524505346064182,113.32852735603346,1.0,1.9918902227834736,109.9096470824431,1.0,1.6938455009904154,56.11705755435018,1.0,1.8306598450737668,57.21146980168328,1.0,1.1643081918116698,55.23088499928275,0.0,0.8275820309718038,54.67876208316035
2025-12-27,,,,,,,,,,,,,,,,,Miami Heat,,,,,,,,,,,,,,,,,,,,Indiana Pacers,,,,,1526.1290915477284,1677.5706123838518,1,0,,,,,0,,,0,,,0,,,0,,,0,,,0,0.3775557989686321,-1.3480679988861084,230.4072723388672,1.0,-0.46014804717696767,117.08837938823362,0.0,-0.8879199517091407,113.31889295063354,0.0,-0.6221629588408103,58.38760421625639,0.0,0.16201491166384263,58.700775171977234,0.0,-0.7780172339332986,57.25967515261212,0.0,-0.1099027177758421,56.05921779802143
2025-12-27,,,,,,,,,,,,,,,,,Chicago Bulls,,,,,,,,,,,,,,,,,,,,Milwaukee Bucks,,,,,1633.1478293875864,1704.6191810793111,1,0,,,,,0,,,0,,,0,,,0,,,0,,,0,0.6067532459756213,0.4052332639694214,231.71141052246094,1.0,2.2155889244258695,116.71221014089349,0.0,-1.8103556604564481,114.99920038156745,0.0,-0.2355331770191158,58.4230167383232,1.0,2.451122101444985,58.289193402570284,0.0,-2.0890113780094266,58.352002437022826,0.0,0.2786557175529785,56.647197944544615
2025-12-27,,,,,,,,,,,,,,,,,Houston Rockets,,,,,,,,,,,,,,,,,,,,Cleveland Cavaliers,,,,,1582.2865289306442,1693.6615563736723,1,0,,,,,0,,,0,,,0,,,0,,,0,,,0,0.3802919869666801,-1.183439016342163,230.40138244628906,1.0,-0.010428115365172463,116.85359512506685,0.0,-1.1730109009769907,113.54778732122222,0.0,-0.46181432359459984,58.71622105717623,0.0,0.4513862082294274,58.13737406789061,0.0,-0.9677468966553728,57.4927496491712,0.0,-0.20526400432161782,56.05503767205102
2025-12-27,,,,,,,,,,,,,,,,,San Antonio Spurs,,,,,,,,,,,,,,,,,,,,Utah Jazz,,,,,1372.426501371599,1223.8102860635088,1,0,,,,,0,,,0,,,0,,,0,,,0,,,0,0.6797720177224522,4.851334095001221,234.79617309570312,1.0,3.518525904271989,116.82562644162823,1.0,1.3328081907292315,117.97054665407491,1.0,1.7176623733675638,58.19983375228407,1.0,1.8008635309044254,58.625792689344166,0.0,0.5756785346873391,59.63483239789662,0.0,0.7571296560418924,58.335714256178285
