mostgood1/WNBA-Betting/data/processed/games_predictions_npu_2025-12-03.csv
date,game_id,home_ot1,home_ot10,home_ot2,home_ot3,home_ot4,home_ot5,home_ot6,home_ot7,home_ot8,home_ot9,home_pts,home_q1,home_q2,home_q3,home_q4,home_team,home_win,margin,season,total_points,visitor_ot1,visitor_ot10,visitor_ot2,visitor_ot3,visitor_ot4,visitor_ot5,visitor_ot6,visitor_ot7,visitor_ot8,visitor_ot9,visitor_pts,visitor_q1,visitor_q2,visitor_q3,visitor_q4,visitor_team,home_h1,home_h2,visitor_h1,visitor_h2,home_elo,visitor_elo,is_home,target_home_win,target_margin,target_total,target_h1_margin,target_h1_total,target_h1_home_win,target_h2_margin,target_h2_total,target_h2_home_win,target_q1_margin,target_q1_total,target_q1_home_win,target_q2_margin,target_q2_total,target_q2_home_win,target_q3_margin,target_q3_total,target_q3_home_win,target_q4_margin,target_q4_total,target_q4_home_win,win_prob,spread_margin,totals,halves_h1_win,halves_h1_margin,halves_h1_total,halves_h2_win,halves_h2_margin,halves_h2_total,quarters_q1_win,quarters_q1_margin,quarters_q1_total,quarters_q2_win,quarters_q2_margin,quarters_q2_total,quarters_q3_win,quarters_q3_margin,quarters_q3_total,quarters_q4_win,quarters_q4_margin,quarters_q4_total
2025-12-03,,,,,,,,,,,,,,,,,Atlanta Hawks,,,,,,,,,,,,,,,,,,,,Los Angeles Clippers,,,,,1522.3022112738163,1809.8047447381302,1,0,,,,,0,,,0,,,0,,,0,,,0,,,0,0.32752096073772585,-4.397295951843262,233.7030487060547,0.0,-2.242839730083106,117.54907194298718,0.0,-2.154456221760156,116.15397676306746,0.0,-1.7169604655284771,58.369123998382456,0.0,-0.5258792645546286,59.179947944604734,0.0,-1.7044057275805349,58.9565868991222,0.0,-0.4500504941796212,57.19738986394526
2025-12-03,,,,,,,,,,,,,,,,,Indiana Pacers,,,,,,,,,,,,,,,,,,,,Denver Nuggets,,,,,1677.5706123838518,1610.9867508691182,1,0,,,,,0,,,0,,,0,,,0,,,0,,,0,0.6552426749332636,3.335878372192383,230.75189208984375,1.0,2.696013978208426,117.54213113287817,1.0,0.639864393983957,113.2097609569656,1.0,0.9562843150629226,58.54173899394909,1.0,1.7397296631455033,59.00039213892908,0.0,0.05998944487324934,57.5693641923527,0.0,0.5798749491107077,55.6403967646129
2025-12-03,,,,,,,,,,,,,,,,,Chicago Bulls,,,,,,,,,,,,,,,,,,,,Brooklyn Nets,,,,,1633.1478293875864,1232.3041632733696,1,0,,,,,0,,,0,,,0,,,0,,,0,,,0,0.7800602954459224,11.637343406677246,227.6336212158203,1.0,7.104693502968095,114.49264919171148,1.0,4.532649903709149,113.14097202410883,1.0,3.6256182839323805,56.883689938022314,1.0,3.479075219035715,57.608959253689164,1.0,2.7165339981035985,57.15057479537175,1.0,1.8161159056055507,55.99039722873707
2025-12-03,,,,,,,,,,,,,,,,,Cleveland Cavaliers,,,,,,,,,,,,,,,,,,,,Portland Trail Blazers,,,,,1693.6615563736723,1538.5027821186084,1,0,,,,,0,,,0,,,0,,,0,,,0,,,0,0.6912280836125997,5.5716681480407715,226.5565185546875,1.0,3.9241449770237002,114.74692639980839,1.0,1.6475231710170717,111.80959215487913,1.0,1.5899182439369925,57.596576274608275,1.0,2.3342267330867075,57.150350125200106,1.0,0.7884524450061796,56.69999567032753,0.0,0.859070726010892,55.109596484551595
2025-12-03,,,,,,,,,,,,,,,,,New York Knicks,,,,,,,,,,,,,,,,,,,,Charlotte Hornets,,,,,1527.0879410236441,1127.6843862010323,1,0,,,,,0,,,0,,,0,,,0,,,0,,,0,0.7732077647852722,11.126566886901855,221.3399658203125,1.0,6.840520149630599,111.8434473424266,1.0,4.286046737271255,109.49651847788589,1.0,3.5805202424940314,55.42287347791235,1.0,3.2599999071365673,56.42057386451425,1.0,2.6127375171048075,55.33792273458946,1.0,1.6733092201664481,54.158595743296424
2025-12-03,,,,,,,,,,,,,,,,,Dallas Mavericks,,,,,,,,,,,,,,,,,,,,Miami Heat,,,,,1345.1752215638398,1526.1290915477284,1,0,,,,,0,,,0,,,0,,,0,,,0,,,0,0.34371253799474155,-3.399808168411255,228.56887817382812,0.0,-0.8749371786082463,116.54309025360793,0.0,-2.5248709898030084,112.02578792022015,0.0,-1.0675768113006399,58.12970314081247,0.0,0.19263963269239365,58.41338711279546,0.0,-2.004313906006153,56.30245870978441,0.0,-0.5205570837968556,55.723329210435736
2025-12-03,,,,,,,,,,,,,,,,,Milwaukee Bucks,,,,,,,,,,,,,,,,,,,,Detroit Pistons,,,,,1704.6191810793111,1548.5405304583608,1,0,,,,,0,,,0,,,0,,,0,,,0,,,0,0.6961259451023949,5.882597923278809,233.914306640625,1.0,3.789863975247843,118.37722802025091,1.0,2.0927339480309657,115.5370786203741,1.0,1.7443961701072388,59.396708892601126,1.0,2.0454678051406043,58.980519127649785,1.0,1.0564963177266744,58.653035427045985,1.0,1.036237630304291,56.88404319332812
2025-12-03,,,,,,,,,,,,,,,,,Orlando Magic,,,,,,,,,,,,,,,,,,,,San Antonio Spurs,,,,,1613.2989140138604,1372.426501371599,1,0,,,,,0,,,0,,,0,,,0,,,0,,,0,0.7217825768264692,7.546176910400391,224.12530517578125,1.0,5.07464237906851,112.0964796611606,1.0,2.471534531331881,112.02882551462068,1.0,2.4252499444786935,55.794460875464964,1.0,2.6493924345898163,56.30201878569563,1.0,1.2594679601734435,56.7544280558095,1.0,1.212066571158437,55.27439745881118
2025-12-03,,,,,,,,,,,,,,,,,Houston Rockets,,,,,,,,,,,,,,,,,,,,Sacramento Kings,,,,,1582.2865289306442,1497.9102461251282,1,0,,,,,0,,,0,,,0,,,0,,,0,,,0,0.6574452482441435,3.4707083702087402,229.1951141357422,1.0,2.9671872400624415,116.24111871174154,1.0,0.5035211301462982,112.95399542400068,1.0,0.9690365443635406,58.040194227698095,1.0,1.998150695698901,58.20092448404343,0.0,0.008387816891349301,57.10595711572924,0.0,0.4951333132549489,55.84803830827145
