mostgood1/WNBA-Betting/data/processed/predictions_2025-01-17.csv
date,game_id,home_ot1,home_ot10,home_ot2,home_ot3,home_ot4,home_ot5,home_ot6,home_ot7,home_ot8,home_ot9,home_pts,home_q1,home_q2,home_q3,home_q4,home_team,home_win,margin,season,total_points,visitor_ot1,visitor_ot10,visitor_ot2,visitor_ot3,visitor_ot4,visitor_ot5,visitor_ot6,visitor_ot7,visitor_ot8,visitor_ot9,visitor_pts,visitor_q1,visitor_q2,visitor_q3,visitor_q4,visitor_team,home_h1,home_h2,visitor_h1,visitor_h2,home_elo,visitor_elo,is_home,target_home_win,target_margin,target_total,target_h1_margin,target_h1_total,target_h1_home_win,target_h2_margin,target_h2_total,target_h2_home_win,target_q1_margin,target_q1_total,target_q1_home_win,target_q2_margin,target_q2_total,target_q2_home_win,target_q3_margin,target_q3_total,target_q3_home_win,target_q4_margin,target_q4_total,target_q4_home_win,win_prob,spread_margin,totals,halves_h1_win,halves_h1_margin,halves_h1_total,halves_h2_win,halves_h2_margin,halves_h2_total,quarters_q1_win,quarters_q1_margin,quarters_q1_total,quarters_q2_win,quarters_q2_margin,quarters_q2_total,quarters_q3_win,quarters_q3_margin,quarters_q3_total,quarters_q4_win,quarters_q4_margin,quarters_q4_total
2025-01-17,0022400585,0.0,0.0,0.0,0.0,0.0,0.0,0.0,0.0,0.0,0.0,102,24.0,27.0,21.0,30.0,Los Angeles Lakers,,,2025,,0.0,0.0,0.0,0.0,0.0,0.0,0.0,0.0,0.0,0.0,101,23.0,22.0,23.0,33.0,Brooklyn Nets,51.0,51.0,45.0,56.0,1501.3477358172668,1240.9028959664427,1,1,1,203,6.0,96.0,1,-5.0,107.0,0,1.0,47.0,1,5.0,49.0,1,-2.0,44.0,0,-3.0,63.0,0,1.0,9.572694778442383,220.04161071777344,0.6753997903505168,5.4770122761645466,110.68375154591722,0.6178206906628501,4.075388964512841,107.79257250267023,0.628266680840309,3.356625951225498,55.30194273501752,0.5899113707736171,2.1203863249390498,55.38180881089971,0.6084018040415324,2.7859575536683128,54.58982475065563,0.5441585789255748,1.289431410844528,53.202747752014595
2025-01-17,0022400583,0.0,0.0,0.0,0.0,0.0,0.0,0.0,0.0,0.0,0.0,106,22.0,41.0,14.0,29.0,Dallas Mavericks,,,2025,,0.0,0.0,0.0,0.0,0.0,0.0,0.0,0.0,0.0,0.0,98,26.0,17.0,33.0,22.0,Oklahoma City Thunder,63.0,43.0,43.0,55.0,1474.3031016583411,1961.722648625608,1,1,8,204,20.0,106.0,1,-12.0,98.0,0,-4.0,48.0,0,24.0,58.0,1,-19.0,47.0,0,7.0,51.0,1,0.0,-8.482210159301758,224.0094757080078,0.30965834837576395,-4.897515383972291,112.54766415536157,0.35720557016637816,-3.7080380490808875,109.70071119316657,0.3364655060315693,-2.7610496184209343,56.86867484105494,0.35686944180554103,-2.136465765551355,55.67898931430663,0.34702406004231734,-2.5114143196165766,56.31864124286982,0.4090279747871144,-1.196623729464312,53.38206995029675
2025-01-17,0022400584,0.0,0.0,0.0,0.0,0.0,0.0,0.0,0.0,0.0,0.0,123,29.0,42.0,32.0,20.0,Chicago Bulls,,,2025,,0.0,0.0,0.0,0.0,0.0,0.0,0.0,0.0,0.0,0.0,125,36.0,37.0,25.0,27.0,Charlotte Hornets,71.0,52.0,73.0,52.0,1411.6010202933765,1228.429215057047,1,0,-2,248,-2.0,144.0,0,0.0,104.0,0,-7.0,65.0,0,5.0,79.0,1,7.0,57.0,1,-7.0,47.0,0,1.0,5.898096084594727,223.92384338378906,0.6136166316820654,3.315927525345634,112.47626627058116,0.5808804191397803,2.484652460254448,109.90000200379146,0.578429134451107,1.7475580089858855,56.38851993544225,0.5696578091816384,1.5683695163597462,56.08774633513893,0.5513791773475328,1.6585022113350747,55.86077427726443,0.5190771404294127,0.8261502489193748,54.03922772652702
2025-01-17,0022400581,0.0,0.0,0.0,0.0,0.0,0.0,0.0,0.0,0.0,0.0,136,42.0,19.0,35.0,40.0,New Orleans Pelicans,,,2025,,0.0,0.0,0.0,0.0,0.0,0.0,0.0,0.0,0.0,0.0,123,22.0,30.0,28.0,43.0,Utah Jazz,61.0,75.0,52.0,71.0,1349.7473930427952,1298.6084392420712,1,1,13,259,9.0,113.0,1,4.0,146.0,1,20.0,64.0,1,-11.0,49.0,0,7.0,63.0,1,-3.0,83.0,0,1.0,2.8875086307525635,224.18833923339844,0.5440641434273923,1.3824594512223598,112.39683741090703,0.540019246560293,1.45887021685107,110.1900458495983,0.5228882908306214,0.7932304913577262,56.32357092015553,0.5173592939949474,0.5892289598646341,56.07326649075151,0.5225641117185046,1.024733049610713,56.109482739308405,0.4924149584764655,0.4341371672403571,54.08056311028991
2025-01-17,0022400582,0.0,0.0,0.0,0.0,0.0,0.0,0.0,0.0,0.0,0.0,112,29.0,35.0,22.0,26.0,San Antonio Spurs,,,2025,,0.0,0.0,0.0,0.0,0.0,0.0,0.0,0.0,0.0,0.0,140,27.0,35.0,40.0,38.0,Memphis Grizzlies,64.0,48.0,62.0,78.0,1487.3313164340136,1618.1479634696748,1,0,-28,252,2.0,126.0,1,-30.0,126.0,0,2.0,56.0,1,0.0,70.0,0,-18.0,62.0,0,-12.0,64.0,0,0.0,-1.24302339553833,229.65196228027344,0.4667031228941223,-0.5495603858387341,115.41629677930372,0.457749471430519,-0.7319881120501844,112.42610255355252,0.4727658132927935,-0.25992721930322604,57.73088948598277,0.45112861846558894,-0.2896331665355093,57.68540729332095,0.44585205575041936,-0.514503140951018,57.410413355920575,0.466274835721519,-0.2174849710991657,55.01568919763195
2025-01-17,0022400579,0.0,0.0,0.0,0.0,0.0,0.0,0.0,0.0,0.0,0.0,113,24.0,31.0,31.0,27.0,Miami Heat,,,2025,,0.0,0.0,0.0,0.0,0.0,0.0,0.0,0.0,0.0,0.0,133,30.0,37.0,31.0,35.0,Denver Nuggets,55.0,58.0,67.0,66.0,1439.883057244766,1669.9539312597333,1,0,-20,246,-12.0,122.0,0,-8.0,124.0,0,-6.0,54.0,0,-6.0,68.0,0,0.0,62.0,0,-8.0,62.0,0,0.0,-1.8383162021636963,217.35818481445312,0.4499186998720015,-0.8832071148682599,109.26728181808284,0.4434593185546168,-1.0430803558490025,106.48666860427258,0.4402478192406113,-0.3872357123682302,55.01736022647811,0.44040292162991296,-0.49597140250002913,54.24992159160473,0.44095258838156404,-0.7097962348916212,54.41583675756117,0.4586775153098252,-0.3332841209573814,52.07083184671141
2025-01-17,0022400578,0.0,0.0,0.0,0.0,0.0,0.0,0.0,0.0,0.0,0.0,99,21.0,38.0,19.0,21.0,New York Knicks,,,2025,,0.0,0.0,0.0,0.0,0.0,0.0,0.0,0.0,0.0,0.0,116,28.0,35.0,18.0,35.0,Minnesota Timberwolves,59.0,40.0,63.0,53.0,1617.7912254579376,1516.437817819595,1,0,-17,215,-4.0,122.0,0,-13.0,93.0,0,-7.0,49.0,0,3.0,73.0,1,1.0,37.0,1,-14.0,56.0,0,1.0,4.782033920288086,225.8231201171875,0.609959651847552,3.053976295618081,113.61148187358665,0.5576777465684402,1.74347973892825,110.69249983095438,0.58760481066782,1.7126905216966581,57.08937826568635,0.5350772839804001,1.3412857739214208,56.522103607900306,0.5119401337027253,1.1609185685567682,56.4885678191909,0.5145158023020507,0.5825611703714819,54.20393201176348
2025-01-17,0022400577,0.0,0.0,0.0,0.0,0.0,0.0,0.0,0.0,0.0,0.0,121,35.0,31.0,30.0,25.0,Boston Celtics,,,2025,,0.0,0.0,0.0,0.0,0.0,0.0,0.0,0.0,0.0,0.0,94,28.0,26.0,22.0,18.0,Orlando Magic,66.0,55.0,54.0,40.0,1599.0649374822858,1444.1793622498992,1,1,27,215,12.0,120.0,1,15.0,95.0,1,7.0,63.0,1,5.0,57.0,1,8.0,52.0,1,7.0,43.0,1,1.0,5.4312920570373535,214.51760864257812,0.6054400506896499,3.258942389999881,107.5787963082039,0.5566384351463272,2.1177742215566995,105.450322410012,0.5763536669056235,1.8509732804017012,53.65009481604485,0.5557247755899054,1.4079691095981786,53.92870149215907,0.5483255770327591,1.496917631036145,53.026617964269256,0.5100263847641204,0.6208565905205563,52.42370444574276
2025-01-17,0022400580,0.0,0.0,0.0,0.0,0.0,0.0,0.0,0.0,0.0,0.0,130,37.0,35.0,35.0,23.0,Milwaukee Bucks,,,2025,,0.0,0.0,0.0,0.0,0.0,0.0,0.0,0.0,0.0,0.0,112,22.0,35.0,34.0,21.0,Toronto Raptors,72.0,58.0,57.0,55.0,1634.4024133347514,1411.8061441760992,1,1,18,242,15.0,129.0,1,3.0,113.0,1,15.0,59.0,1,0.0,70.0,0,1.0,69.0,1,2.0,44.0,1,1.0,7.109170913696289,224.2274932861328,0.637489846351798,3.9092998622097994,112.56422538686283,0.6025408874852505,3.118420850240733,110.1465266026029,0.5907849898569878,2.166429607235022,56.4873469182622,0.5766787113242141,1.7428702549747768,56.07687846860063,0.5744575635227323,2.0468988729203144,56.2337916193728,0.5329046274580181,1.0715219773204194,53.9127349832301
